luts/cinepi-natural.cube
TITLE "CinePi Natural"
LUT_3D_SIZE 33
DOMAIN_MIN 0.0 0.0 0.0
DOMAIN_MAX 1.0 1.0 1.0
0.000000000 0.000000000 0.000000000
0.027153422 0.000000000 0.000000000
0.055266418 0.000000000 0.000000000
0.084275016 0.000000000 0.000000000
0.114115244 0.000000000 0.000000000
0.144723131 0.000000000 0.000000000
0.176034705 0.000000000 0.000000000
0.207985994 0.000000000 0.000000000
0.240513028 0.000000000 0.000000000
0.273551835 0.000000000 0.000000000
0.307038442 0.000000000 0.000000000
0.340908879 0.000000000 0.000000000
0.375099174 0.000000000 0.000000000
0.409545355 0.000000000 0.000000000
0.444183451 0.000000000 0.000000000
0.478949490 0.000000000 0.000000000
0.513779500 0.000000000 0.000000000
0.548609510 0.000000000 0.000000000
0.583375549 0.000000000 0.000000000
0.618013645 0.000000000 0.000000000
0.652459826 0.000000000 0.000000000
0.686650121 0.000000000 0.000000000
0.720520558 0.000000000 0.000000000
0.754007165 0.000000000 0.000000000
0.787045972 0.000000000 0.000000000
0.819573006 0.000000000 0.000000000
0.851524295 0.000000000 0.000000000
0.882835869 0.000000000 0.000000000
0.913443756 0.000000000 0.000000000
0.943283984 0.000000000 0.000000000
0.972292582 0.000000000 0.000000000
1.000000000 0.000000000 0.000000000
1.000000000 0.000000000 0.000000000
0.000000000 0.026688577 0.000000000
0.026491947 0.026491947 0.000000000
0.054604943 0.026288369 0.000000000
0.083613541 0.026078305 0.000000000
0.113453769 0.025862219 0.000000000
0.144061656 0.025640574 0.000000000
0.175373230 0.025413833 0.000000000
0.207324520 0.025182460 0.000000000
0.239851554 0.024946918 0.000000000
0.272890360 0.024707670 0.000000000
0.306376968 0.024465179 0.000000000
0.340247404 0.024219908 0.000000000
0.374437699 0.023972321 0.000000000
0.408883880 0.023722882 0.000000000
0.443521976 0.023472052 0.000000000
0.478288015 0.023220296 0.000000000
0.513118025 0.022968077 0.000000000
0.547948036 0.022715858 0.000000000
0.582714074 0.022464102 0.000000000
0.617352170 0.022213272 0.000000000
0.651798351 0.021963833 0.000000000
0.685988646 0.021716246 0.000000000
0.719859083 0.021470975 0.000000000
0.753345690 0.021228484 0.000000000
0.786384497 0.020989236 0.000000000
0.818911531 0.020753694 0.000000000
0.850862820 0.020522321 0.000000000
0.882174395 0.020295580 0.000000000
0.912782281 0.020073935 0.000000000
0.942622510 0.019857849 0.000000000
0.971631107 0.019647785 0.000000000
0.999744103 0.019444207 0.000000000
1.000000000 0.019247577 0.000000000
0.000000000 0.054320300 0.000000000
0.025807097 0.054123671 0.000000000
0.053920092 0.053920092 0.000000000
0.082928690 0.053710028 0.000000000
0.112768918 0.053493942 0.000000000
0.143376805 0.053272297 0.000000000
0.174688379 0.053045557 0.000000000
0.206639669 0.052814184 0.000000000
0.239166703 0.052578641 0.000000000
0.272205509 0.052339393 0.000000000
0.305692117 0.052096902 0.000000000
0.339562554 0.051851631 0.000000000
0.373752848 0.051604045 0.000000000
0.408199029 0.051354605 0.000000000
0.442837125 0.051103776 0.000000000
0.477603164 0.050852020 0.000000000
0.512433174 0.050599800 0.000000000
0.547263185 0.050347581 0.000000000
0.582029224 0.050095825 0.000000000
0.616667319 0.049844996 0.000000000
0.651113500 0.049595556 0.000000000
0.685303795 0.049347969 0.000000000
0.719174232 0.049102699 0.000000000
0.752660839 0.048860208 0.000000000
0.785699646 0.048620959 0.000000000
0.818226680 0.048385417 0.000000000
0.850177970 0.048154044 0.000000000
0.881489544 0.047927303 0.000000000
0.912097431 0.047705658 0.000000000
0.941937659 0.047489572 0.000000000
0.970946257 0.047279508 0.000000000
0.999059252 0.047075930 0.000000000
1.000000000 0.046879300 0.000000000
0.000000000 0.082832294 0.000000000
0.025100428 0.082635664 0.000000000
0.053213424 0.082432086 0.000000000
0.082222022 0.082222022 0.000000000
0.112062250 0.082005936 0.000000000
0.142670137 0.081784291 0.000000000
0.173981711 0.081557550 0.000000000
0.205933001 0.081326177 0.000000000
0.238460035 0.081090635 0.000000000
0.271498841 0.080851386 0.000000000
0.304985449 0.080608895 0.000000000
0.338855886 0.080363625 0.000000000
0.373046180 0.080116038 0.000000000
0.407492361 0.079866598 0.000000000
0.442130457 0.079615769 0.000000000
0.476896496 0.079364013 0.000000000
0.511726506 0.079111794 0.000000000
0.546556517 0.078859575 0.000000000
0.581322556 0.078607819 0.000000000
0.615960651 0.078356989 0.000000000
0.650406832 0.078107549 0.000000000
0.684597127 0.077859963 0.000000000
0.718467564 0.077614692 0.000000000
0.751954171 0.077372201 0.000000000
0.784992978 0.077132953 0.000000000
0.817520012 0.076897410 0.000000000
0.849471302 0.076666037 0.000000000
0.880782876 0.076439297 0.000000000
0.911390763 0.076217652 0.000000000
0.941230991 0.076001566 0.000000000
0.970239588 0.075791502 0.000000000
0.998352584 0.075587923 0.000000000
1.000000000 0.075391294 0.000000000
0.000000000 0.112161681 0.000000000
0.024373501 0.111965051 0.000000000
0.052486497 0.111761473 0.000000000
0.081495095 0.111551409 0.000000000
0.111335323 0.111335323 0.000000000
0.141943210 0.111113678 0.000000000
0.173254784 0.110886937 0.000000000
0.205206074 0.110655564 0.000000000
0.237733107 0.110420022 0.000000000
0.270771914 0.110180773 0.000000000
0.304258521 0.109938282 0.000000000
0.338128958 0.109693012 0.000000000
0.372319253 0.109445425 0.000000000
0.406765434 0.109195985 0.000000000
0.441403530 0.108945156 0.000000000
0.476169569 0.108693400 0.000000000
0.510999579 0.108441181 0.000000000
0.545829589 0.108188961 0.000000000
0.580595628 0.107937205 0.000000000
0.615233724 0.107686376 0.000000000
0.649679905 0.107436936 0.000000000
0.683870200 0.107189350 0.000000000
0.717740637 0.106944079 0.000000000
0.751227244 0.106701588 0.000000000
0.784266051 0.106462340 0.000000000
0.816793085 0.106226797 0.000000000
0.848744374 0.105995424 0.000000000
0.880055949 0.105768684 0.000000000
0.910663835 0.105547039 0.000000000
0.940504063 0.105330953 0.000000000
0.969512661 0.105120889 0.000000000
0.997625657 0.104917310 0.000000000
1.000000000 0.104720681 0.000000000
0.000000000 0.142245585 0.000000000
0.023627873 0.142048955 0.000000000
0.051740869 0.141845377 0.000000000
0.080749467 0.141635313 0.000000000
0.110589695 0.141419227 0.000000000
0.141197582 0.141197582 0.000000000
0.172509156 0.140970841 0.000000000
0.204460446 0.140739468 0.000000000
0.236987480 0.140503926 0.000000000
0.270026286 0.140264677 0.000000000
0.303512894 0.140022186 0.000000000
0.337383330 0.139776916 0.000000000
0.371573625 0.139529329 0.000000000
0.406019806 0.139279889 0.000000000
0.440657902 0.139029060 0.000000000
0.475423941 0.138777304 0.000000000
0.510253951 0.138525085 0.000000000
0.545083962 0.138272865 0.000000000
0.579850000 0.138021109 0.000000000
0.614488096 0.137770280 0.000000000
0.648934277 0.137520840 0.000000000
0.683124572 0.137273254 0.000000000
0.716995009 0.137027983 0.000000000
0.750481616 0.136785492 0.000000000
0.783520423 0.136546244 0.000000000
0.816047457 0.136310701 0.000000000
0.847998747 0.136079328 0.000000000
0.879310321 0.135852588 0.000000000
0.909918208 0.135630943 0.000000000
0.939758436 0.135414857 0.000000000
0.968767033 0.135204793 0.000000000
0.996880029 0.135001214 0.000000000
1.000000000 0.134804585 0.000000000
0.000000000 0.173021129 0.000000000
0.022865103 0.172824500 0.000000000
0.050978099 0.172620921 0.000000000
0.079986697 0.172410857 0.000000000
0.109826925 0.172194771 0.000000000
0.140434812 0.171973126 0.000000000
0.171746386 0.171746386 0.000000000
0.203697676 0.171515013 0.000000000
0.236224709 0.171279470 0.000000000
0.269263516 0.171040222 0.000000000
0.302750123 0.170797731 0.000000000
0.336620560 0.170552460 0.000000000
0.370810855 0.170304874 0.000000000
0.405257036 0.170055434 0.000000000
0.439895132 0.169804604 0.000000000
0.474661171 0.169552848 0.000000000
0.509491181 0.169300629 0.000000000
0.544321191 0.169048410 0.000000000
0.579087230 0.168796654 0.000000000
0.613725326 0.168545825 0.000000000
0.648171507 0.168296385 0.000000000
0.682361802 0.168048798 0.000000000
0.716232239 0.167803528 0.000000000
0.749718846 0.167561037 0.000000000
0.782757653 0.167321788 0.000000000
0.815284687 0.167086246 0.000000000
0.847235976 0.166854873 0.000000000
0.878547551 0.166628132 0.000000000
0.909155437 0.166406487 0.000000000
0.938995665 0.166190401 0.000000000
0.968004263 0.165980337 0.000000000
0.996117259 0.165776759 0.000000000
1.000000000 0.165580129 0.000000000
0.000000000 0.204425438 0.000000000
0.022086749 0.204228809 0.000000000
0.050199745 0.204025230 0.000000000
0.079208343 0.203815166 0.000000000
0.109048571 0.203599080 0.000000000
0.139656458 0.203377435 0.000000000
0.170968032 0.203150695 0.000000000
0.202919322 0.202919322 0.000000000
0.235446355 0.202683779 0.000000000
0.268485162 0.202444531 0.000000000
0.301971769 0.202202040 0.000000000
0.335842206 0.201956769 0.000000000
0.370032501 0.201709183 0.000000000
0.404478682 0.201459743 0.000000000
0.439116778 0.201208913 0.000000000
0.473882817 0.200957157 0.000000000
0.508712827 0.200704938 0.000000000
0.543542837 0.200452719 0.000000000
0.578308876 0.200200963 0.000000000
0.612946972 0.199950134 0.000000000
0.647393153 0.199700694 0.000000000
0.681583448 0.199453107 0.000000000
0.715453885 0.199207837 0.000000000
0.748940492 0.198965346 0.000000000
0.781979299 0.198726097 0.000000000
0.814506333 0.198490555 0.000000000
0.846457622 0.198259182 0.000000000
0.877769197 0.198032441 0.000000000
0.908377083 0.197810796 0.000000000
0.938217311 0.197594710 0.000000000
0.967225909 0.197384646 0.000000000
0.995338905 0.197181068 0.000000000
1.000000000 0.196984438 0.000000000
0.000000000 0.236395635 0.000000000
0.021294370 0.236199005 0.000000000
0.049407365 0.235995427 0.000000000
0.078415963 0.235785363 0.000000000
0.108256191 0.235569277 0.000000000
0.138864078 0.235347632 0.000000000
0.170175652 0.235120891 0.000000000
0.202126942 0.234889518 0.000000000
0.234653976 0.234653976 0.000000000
0.267692782 0.234414728 0.000000000
0.301179390 0.234172237 0.000000000
0.335049827 0.233926966 0.000000000
0.369240122 0.233679379 0.000000000
0.403686303 0.233429940 0.000000000
0.438324398 0.233179110 0.000000000
0.473090437 0.232927354 0.000000000
0.507920447 0.232675135 0.000000000
0.542750458 0.232422916 0.000000000
0.577516497 0.232171160 0.000000000
0.612154592 0.231920330 0.000000000
0.646600773 0.231670891 0.000000000
0.680791068 0.231423304 0.000000000
0.714661505 0.231178033 0.000000000
0.748148113 0.230935542 0.000000000
0.781186919 0.230696294 0.000000000
0.813713953 0.230460752 0.000000000
0.845665243 0.230229379 0.000000000
0.876976817 0.230002638 0.000000000
0.907584704 0.229780993 0.000000000
0.937424932 0.229564907 0.000000000
0.966433530 0.229354843 0.000000000
0.994546525 0.229151265 0.000000000
1.000000000 0.228954635 0.000000000
0.000000000 0.268868843 0.000000000
0.020489523 0.268672213 0.000000000
0.048602519 0.268468635 0.000000000
0.077611116 0.268258571 0.000000000
0.107451344 0.268042485 0.000000000
0.138059231 0.267820840 0.000000000
0.169370806 0.267594100 0.000000000
0.201322095 0.267362726 0.000000000
0.233849129 0.267127184 0.000000000
0.266887936 0.266887936 0.000000000
0.300374543 0.266645445 0.000000000
0.334244980 0.266400174 0.000000000
0.368435275 0.266152588 0.000000000
0.402881456 0.265903148 0.000000000
0.437519552 0.265652318 0.000000000
0.472285590 0.265400562 0.000000000
0.507115601 0.265148343 0.000000000
0.541945611 0.264896124 0.000000000
0.576711650 0.264644368 0.000000000
0.611349746 0.264393539 0.000000000
0.645795927 0.264144099 0.000000000
0.679986222 0.263896512 0.000000000
0.713856658 0.263651242 0.000000000
0.747343266 0.263408751 0.000000000
0.780382072 0.263169502 0.000000000
0.812909106 0.262933960 0.000000000
0.844860396 0.262702587 0.000000000
0.876171970 0.262475846 0.000000000
0.906779857 0.262254201 0.000000000
0.936620085 0.262038115 0.000000000
0.965628683 0.261828051 0.000000000
0.993741679 0.261624473 0.000000000
1.000000000 0.261427843 0.000000000
0.000000000 0.301782186 0.000000000
0.019673768 0.301585557 0.000000000
0.047786763 0.301381978 0.000000000
0.076795361 0.301171914 0.000000000
0.106635589 0.300955828 0.000000000
0.137243476 0.300734183 0.000000000
0.168555050 0.300507443 0.000000000
0.200506340 0.300276070 0.000000000
0.233033374 0.300040527 0.000000000
0.266072180 0.299801279 0.000000000
0.299558788 0.299558788 0.000000000
0.333429225 0.299313517 0.000000000
0.367619520 0.299065931 0.000000000
0.402065701 0.298816491 0.000000000
0.436703796 0.298565661 0.000000000
0.471469835 0.298313906 0.000000000
0.506299846 0.298061686 0.000000000
0.541129856 0.297809467 0.000000000
0.575895895 0.297557711 0.000000000
0.610533990 0.297306882 0.000000000
0.644980171 0.297057442 0.000000000
0.679170466 0.296809855 0.000000000
0.713040903 0.296564585 0.000000000
0.746527511 0.296322094 0.000000000
0.779566317 0.296082845 0.000000000
0.812093351 0.295847303 0.000000000
0.844044641 0.295615930 0.000000000
0.875356215 0.295389189 0.000000000
0.905964102 0.295167544 0.000000000
0.935804330 0.294951458 0.000000000
0.964812928 0.294741394 0.000000000
0.992925923 0.294537816 0.000000000
1.000000000 0.294341186 0.000000000
0.000000000 0.335072788 0.000000000
0.018848662 0.334876158 0.000000000
0.046961658 0.334672580 0.000000000
0.075970255 0.334462516 0.000000000
0.105810483 0.334246430 0.000000000
0.136418370 0.334024785 0.000000000
0.167729944 0.333798044 0.000000000
0.199681234 0.333566671 0.000000000
0.232208268 0.333331129 0.000000000
0.265247075 0.333091881 0.000000000
0.298733682 0.332849390 0.000000000
0.332604119 0.332604119 0.000000000
0.366794414 0.332356532 0.000000000
0.401240595 0.332107093 0.000000000
0.435878691 0.331856263 0.000000000
0.470644729 0.331604507 0.000000000
0.505474740 0.331352288 0.000000000
0.540304750 0.331100069 0.000000000
0.575070789 0.330848313 0.000000000
0.609708885 0.330597483 0.000000000
0.644155066 0.330348044 0.000000000
0.678345361 0.330100457 0.000000000
0.712215797 0.329855186 0.000000000
0.745702405 0.329612695 0.000000000
0.778741211 0.329373447 0.000000000
0.811268245 0.329137905 0.000000000
0.843219535 0.328906532 0.000000000
0.874531109 0.328679791 0.000000000
0.905138996 0.328458146 0.000000000
0.934979224 0.328242060 0.000000000
0.963987822 0.328031996 0.000000000
0.992100818 0.327828418 0.000000000
1.000000000 0.327631788 0.000000000
0.000000000 0.368677772 0.000000000
0.018015764 0.368481142 0.000000000
0.046128760 0.368277564 0.000000000
0.075137358 0.368067500 0.000000000
0.104977586 0.367851414 0.000000000
0.135585473 0.367629769 0.000000000
0.166897047 0.367403028 0.000000000
0.198848337 0.367171655 0.000000000
0.231375371 0.366936113 0.000000000
0.264414177 0.366696864 0.000000000
0.297900785 0.366454373 0.000000000
0.331771221 0.366209103 0.000000000
0.365961516 0.365961516 0.000000000
0.400407697 0.365712076 0.000000000
0.435045793 0.365461247 0.000000000
0.469811832 0.365209491 0.000000000
0.504641842 0.364957272 0.000000000
0.539471853 0.364705053 0.000000000
0.574237891 0.364453297 0.000000000
0.608875987 0.364202467 0.000000000
0.643322168 0.363953028 0.000000000
0.677512463 0.363705441 0.000000000
0.711382900 0.363460170 0.000000000
0.744869507 0.363217679 0.000000000
0.777908314 0.362978431 0.000000000
0.810435348 0.362742889 0.000000000
0.842386638 0.362511515 0.000000000
0.873698212 0.362284775 0.000000000
0.904306099 0.362063130 0.000000000
0.934146327 0.361847044 0.000000000
0.963154924 0.361636980 0.000000000
0.991267920 0.361433402 0.000000000
1.000000000 0.361236772 0.000000000
0.000000000 0.402534261 0.000000000
0.017176633 0.402337632 0.000000000
0.045289629 0.402134053 0.000000000
0.074298227 0.401923990 0.000000000
0.104138455 0.401707903 0.000000000
0.134746342 0.401486259 0.000000000
0.166057916 0.401259518 0.000000000
0.198009205 0.401028145 0.000000000
0.230536239 0.400792602 0.000000000
0.263575046 0.400553354 0.000000000
0.297061653 0.400310863 0.000000000
0.330932090 0.400065592 0.000000000
0.365122385 0.399818006 0.000000000
0.399568566 0.399568566 0.000000000
0.434206662 0.399317737 0.000000000
0.468972701 0.399065981 0.000000000
0.503802711 0.398813761 0.000000000
0.538632721 0.398561542 0.000000000
0.573398760 0.398309786 0.000000000
0.608036856 0.398058957 0.000000000
0.642483037 0.397809517 0.000000000
0.676673332 0.397561930 0.000000000
0.710543769 0.397316660 0.000000000
0.744030376 0.397074169 0.000000000
0.777069183 0.396834920 0.000000000
0.809596217 0.396599378 0.000000000
0.841547506 0.396368005 0.000000000
0.872859080 0.396141264 0.000000000
0.903466967 0.395919619 0.000000000
0.933307195 0.395703533 0.000000000
0.962315793 0.395493469 0.000000000
0.990428789 0.395289891 0.000000000
1.000000000 0.395093261 0.000000000
0.000000000 0.436579380 0.000000000
0.016332827 0.436382751 0.000000000
0.044445823 0.436179172 0.000000000
0.073454420 0.435969108 0.000000000
0.103294648 0.435753022 0.000000000
0.133902535 0.435531377 0.000000000
0.165214109 0.435304637 0.000000000
0.197165399 0.435073264 0.000000000
0.229692433 0.434837721 0.000000000
0.262731240 0.434598473 0.000000000
0.296217847 0.434355982 0.000000000
0.330088284 0.434110711 0.000000000
0.364278579 0.433863125 0.000000000
0.398724760 0.433613685 0.000000000
0.433362855 0.433362855 0.000000000
0.468128894 0.433111099 0.000000000
0.502958905 0.432858880 0.000000000
0.537788915 0.432606661 0.000000000
0.572554954 0.432354905 0.000000000
0.607193050 0.432104076 0.000000000
0.641639231 0.431854636 0.000000000
0.675829525 0.431607049 0.000000000
0.709699962 0.431361779 0.000000000
0.743186570 0.431119288 0.000000000
0.776225376 0.430880039 0.000000000
0.808752410 0.430644497 0.000000000
0.840703700 0.430413124 0.000000000
0.872015274 0.430186383 0.000000000
0.902623161 0.429964738 0.000000000
0.932463389 0.429748652 0.000000000
0.961471987 0.429538588 0.000000000
0.989584982 0.429335010 0.000000000
1.000000000 0.429138380 0.000000000
0.000000000 0.470750252 0.000000000
0.015485904 0.470553622 0.000000000
0.043598899 0.470350044 0.000000000
0.072607497 0.470139980 0.000000000
0.102447725 0.469923894 0.000000000
0.133055612 0.469702249 0.000000000
0.164367186 0.469475508 0.000000000
0.196318476 0.469244135 0.000000000
0.228845510 0.469008593 0.000000000
0.261884316 0.468769345 0.000000000
0.295370924 0.468526853 0.000000000
0.329241361 0.468281583 0.000000000
0.363431656 0.468033996 0.000000000
0.397877837 0.467784557 0.000000000
0.432515932 0.467533727 0.000000000
0.467281971 0.467281971 0.000000000
0.502111982 0.467029752 0.000000000
0.536941992 0.466777533 0.000000000
0.571708031 0.466525777 0.000000000
0.606346126 0.466274947 0.000000000
0.640792307 0.466025508 0.000000000
0.674982602 0.465777921 0.000000000
0.708853039 0.465532650 0.000000000
0.742339647 0.465290159 0.000000000
0.775378453 0.465050911 0.000000000
0.807905487 0.464815369 0.000000000
0.839856777 0.464583995 0.000000000
0.871168351 0.464357255 0.000000000
0.901776238 0.464135610 0.000000000
0.931616466 0.463919524 0.000000000
0.960625064 0.463709460 0.000000000
0.988738059 0.463505882 0.000000000
1.000000000 0.463309252 0.000000000
0.000000000 0.504984000 0.000000000
0.014637422 0.504787370 0.000000000
0.042750418 0.504583792 0.000000000
0.071759016 0.504373728 0.000000000
0.101599244 0.504157642 0.000000000
0.132207131 0.503935997 0.000000000
0.163518705 0.503709256 0.000000000
0.195469994 0.503477883 0.000000000
0.227997028 0.503242341 0.000000000
0.261035835 0.503003093 0.000000000
0.294522442 0.502760602 0.000000000
0.328392879 0.502515331 0.000000000
0.362583174 0.502267744 0.000000000
0.397029355 0.502018305 0.000000000
0.431667451 0.501767475 0.000000000
0.466433490 0.501515719 0.000000000
0.501263500 0.501263500 0.000000000
0.536093510 0.501011281 0.000000000
0.570859549 0.500759525 0.000000000
0.605497645 0.500508695 0.000000000
0.639943826 0.500259256 0.000000000
0.674134121 0.500011669 0.000000000
0.708004558 0.499766398 0.000000000
0.741491165 0.499523907 0.000000000
0.774529972 0.499284659 0.000000000
0.807057006 0.499049117 0.000000000
0.839008295 0.498817744 0.000000000
0.870319869 0.498591003 0.000000000
0.900927756 0.498369358 0.000000000
0.930767984 0.498153272 0.000000000
0.959776582 0.497943208 0.000000000
0.987889578 0.497739630 0.000000000
1.000000000 0.497543000 0.000000000
0.000000000 0.539217748 0.000000000
0.013788941 0.539021118 0.000000000
0.041901936 0.538817540 0.000000000
0.070910534 0.538607476 0.000000000
0.100750762 0.538391390 0.000000000
0.131358649 0.538169745 0.000000000
0.162670223 0.537943005 0.000000000
0.194621513 0.537711631 0.000000000
0.227148547 0.537476089 0.000000000
0.260187353 0.537236841 0.000000000
0.293673961 0.536994350 0.000000000
0.327544398 0.536749079 0.000000000
0.361734693 0.536501492 0.000000000
0.396180874 0.536252053 0.000000000
0.430818969 0.536001223 0.000000000
0.465585008 0.535749467 0.000000000
0.500415018 0.535497248 0.000000000
0.535245029 0.535245029 0.000000000
0.570011068 0.534993273 0.000000000
0.604649163 0.534742443 0.000000000
0.639095344 0.534493004 0.000000000
0.673285639 0.534245417 0.000000000
0.707156076 0.534000147 0.000000000
0.740642684 0.533757655 0.000000000
0.773681490 0.533518407 0.000000000
0.806208524 0.533282865 0.000000000
0.838159814 0.533051492 0.000000000
0.869471388 0.532824751 0.000000000
0.900079275 0.532603106 0.000000000
0.929919503 0.532387020 0.000000000
0.958928101 0.532176956 0.000000000
0.987041096 0.531973378 0.000000000
1.000000000 0.531776748 0.000000000
0.000000000 0.573388620 0.000000000
0.012942018 0.573191990 0.000000000
0.041055013 0.572988412 0.000000000
0.070063611 0.572778348 0.000000000
0.099903839 0.572562262 0.000000000
0.130511726 0.572340617 0.000000000
0.161823300 0.572113876 0.000000000
0.193774590 0.571882503 0.000000000
0.226301624 0.571646961 0.000000000
0.259340430 0.571407712 0.000000000
0.292827038 0.571165221 0.000000000
0.326697475 0.570919951 0.000000000
0.360887769 0.570672364 0.000000000
0.395333950 0.570422924 0.000000000
0.429972046 0.570172095 0.000000000
0.464738085 0.569920339 0.000000000
0.499568095 0.569668120 0.000000000
0.534398106 0.569415901 0.000000000
0.569164145 0.569164145 0.000000000
0.603802240 0.568913315 0.000000000
0.638248421 0.568663875 0.000000000
0.672438716 0.568416289 0.000000000
0.706309153 0.568171018 0.000000000
0.739795760 0.567928527 0.000000000
0.772834567 0.567689279 0.000000000
0.805361601 0.567453736 0.000000000
0.837312891 0.567222363 0.000000000
0.868624465 0.566995623 0.000000000
0.899232352 0.566773978 0.000000000
0.929072580 0.566557892 0.000000000
0.958081177 0.566347828 0.000000000
0.986194173 0.566144249 0.000000000
1.000000000 0.565947620 0.000000000
0.000000000 0.607433739 0.000000000
0.012098211 0.607237109 0.000000000
0.040211207 0.607033531 0.000000000
0.069219805 0.606823467 0.000000000
0.099060033 0.606607381 0.000000000
0.129667920 0.606385736 0.000000000
0.160979494 0.606158995 0.000000000
0.192930783 0.605927622 0.000000000
0.225457817 0.605692080 0.000000000
0.258496624 0.605452831 0.000000000
0.291983231 0.605210340 0.000000000
0.325853668 0.604965070 0.000000000
0.360043963 0.604717483 0.000000000
0.394490144 0.604468043 0.000000000
0.429128240 0.604217214 0.000000000
0.463894279 0.603965458 0.000000000
0.498724289 0.603713239 0.000000000
0.533554299 0.603461019 0.000000000
0.568320338 0.603209263 0.000000000
0.602958434 0.602958434 0.000000000
0.637404615 0.602708994 0.000000000
0.671594910 0.602461408 0.000000000
0.705465347 0.602216137 0.000000000
0.738951954 0.601973646 0.000000000
0.771990761 0.601734398 0.000000000
0.804517795 0.601498855 0.000000000
0.836469084 0.601267482 0.000000000
0.867780658 0.601040741 0.000000000
0.898388545 0.600819097 0.000000000
0.928228773 0.600603010 0.000000000
0.957237371 0.600392947 0.000000000
0.985350367 0.600189368 0.000000000
1.000000000 0.599992739 0.000000000
0.000000000 0.641290228 0.000000000
0.011259080 0.641093598 0.000000000
0.039372076 0.640890020 0.000000000
0.068380673 0.640679956 0.000000000
