luts/cinepi-soft-portrait.cube
TITLE "CinePi Soft Portrait"
LUT_3D_SIZE 5
DOMAIN_MIN 0.0 0.0 0.0
DOMAIN_MAX 1.0 1.0 1.0
0.000000000 0.000000000 0.000000000
0.234688752 0.002868439 0.002868439
0.478346500 0.005846500 0.005846500
0.722243688 0.008904374 0.008704841
0.959345246 0.012577082 0.010366877
0.010344140 0.241701434 0.009302349
0.248046395 0.245574374 0.010664036
0.496254137 0.250069100 0.011367100
0.744655440 0.254628346 0.011973384
0.982910139 0.258685434 0.013058849
0.034340112 0.497058704 0.012331944
0.271844734 0.500865766 0.013792448
0.516014500 0.504014500 0.016514500
0.759672248 0.506992561 0.019492561
0.994361000 0.509861000 0.022361000
0.047686388 0.748866075 0.020686388
0.282375139 0.751734514 0.023554827
0.525649225 0.754584687 0.026724719
0.766519278 0.756633516 0.031096628
0.996960334 0.758086057 0.036088914
0.053048578 0.988906859 0.032479711
0.283262917 0.990283828 0.037585356
0.522229621 0.991698207 0.042908939
0.762404247 0.993515227 0.047628562
0.996029000 0.996029000 0.051029000
0.000974136 0.000974136 0.232794448
0.235662887 0.003842575 0.235662887
0.479320636 0.006820636 0.238640948
0.723777930 0.010065212 0.241219237
0.961578713 0.013970995 0.242531660
0.012118985 0.242942473 0.241696443
0.250409611 0.247011537 0.242763944
0.498820436 0.251573957 0.243365467
0.747009399 0.256062423 0.244077921
0.984666811 0.259920415 0.245462030
0.036492306 0.498425526 0.244537363
0.273239238 0.501980025 0.246376712
0.516988636 0.504988636 0.249308948
0.760646384 0.507966697 0.252287009
0.995335136 0.510835136 0.255155448
0.048660523 0.749840211 0.253480836
0.283349275 0.752708650 0.256349275
0.525969609 0.755340906 0.259846043
0.766164370 0.757164638 0.264555598
0.996347758 0.758531289 0.269676719
0.052580073 0.989400115 0.265995480
0.282647596 0.990728145 0.271174533
0.521869649 0.992227640 0.276370442
0.762715045 0.994268250 0.280754679
0.997003136 0.997003136 0.283823448
0.001985500 0.001985500 0.474485500
0.236674252 0.004853939 0.477353939
0.480335438 0.007833146 0.480330281
0.725667179 0.011369204 0.482471346
0.964055427 0.015470809 0.483490037
0.014218200 0.244316454 0.482843569
0.252981201 0.248542976 0.483674883
0.501459094 0.253127752 0.484242872
0.749283829 0.257494809 0.485137439
0.986182643 0.261099935 0.486900847
0.038499623 0.499768874 0.485730438
0.274342252 0.503021939 0.488021939
0.518000000 0.506000000 0.491000000
0.761657748 0.508978061 0.493978061
0.996346500 0.511846500 0.496846500
0.049671888 0.750851575 0.495171887
0.284322866 0.753707423 0.498059213
0.526020749 0.756032195 0.502017207
0.765658186 0.757670153 0.507005424
0.995712540 0.758993792 0.512191061
0.051995781 0.989879594 0.508484359
0.282049361 0.991202975 0.513670385
0.521680295 0.992838765 0.518661852
0.763365870 0.995159435 0.522626000
0.998014500 0.998014500 0.525514500
0.002996864 0.002996864 0.716176552
0.237685616 0.005865303 0.719044991
0.481590681 0.008925803 0.721899393
0.727809226 0.012757463 0.723597056
0.966643860 0.017007863 0.724392554
0.016529634 0.245761175 0.723884585
0.255623932 0.250098129 0.724550251
0.504022422 0.254656438 0.725157941
0.751336458 0.258853261 0.726307858
0.987339477 0.262159789 0.728519164
0.040226424 0.501018717 0.727063772
0.275353616 0.504033303 0.729712991
0.519011364 0.507011364 0.732691052
0.762669113 0.509989425 0.735669112
0.997344813 0.512853514 0.738544077
0.050683252 0.751862939 0.736862939
0.284978523 0.754600218 0.739928118
0.525834255 0.756644273 0.744307188
0.765060838 0.758145279 0.749500831
0.995127237 0.759472934 0.754680446
0.051360905 0.990342211 0.750998531
0.281541619 0.991707971 0.756120989
0.521727906 0.993528878 0.760834780
0.764337113 0.996157425 0.764337113
0.999025864 0.999025864 0.767205552
0.003971000 0.003971000 0.948971000
0.238659752 0.006839439 0.951839439
0.483130761 0.010088587 0.954410869
0.730064985 0.014158806 0.955750693
0.969196187 0.018508062 0.956397906
0.018910180 0.247204114 0.955975829
0.258190193 0.251602974 0.956548637
0.506373722 0.256089628 0.957263808
0.753057374 0.260076324 0.958728917
0.988313613 0.263133925 0.961313613
0.041577991 0.502118664 0.959669505
0.276327752 0.505007439 0.962507439
0.519985500 0.507985500 0.965485500
0.763643248 0.510963561 0.968463561
0.998045930 0.513736643 0.971475035
0.051657388 0.752837075 0.969657387
0.285293340 0.755354581 0.973052226
0.525476403 0.757174413 0.977767630
0.764445739 0.758589670 0.983089897
0.994657125 0.759965654 0.988197019
0.050748024 0.990787341 0.984586488
0.281184579 0.992238381 0.989581026
0.522044259 0.994283753 0.993958121
0.765311248 0.997131561 0.997131561
1.000000000 1.000000000 1.000000000
