luts/cinepi-cinema-warm.cube
TITLE "CinePi Cinema Warm"
LUT_3D_SIZE 33
DOMAIN_MIN 0.0 0.0 0.0
DOMAIN_MAX 1.0 1.0 1.0
0.000000000 0.001500000 0.010000000
0.018628568 0.001500000 0.010000000
0.042973424 0.001500000 0.010000000
0.068920151 0.001500000 0.010000000
0.096354329 0.001500000 0.010000000
0.125161538 0.001500000 0.010000000
0.155227360 0.001500000 0.010000000
0.186437374 0.001500000 0.010000000
0.218677162 0.001500000 0.010000000
0.251832304 0.001500000 0.010000000
0.285788381 0.001500000 0.010000000
0.320430974 0.001500000 0.010000000
0.355645664 0.001500000 0.010000000
0.391318030 0.001500000 0.010000000
0.427333655 0.001500000 0.010000000
0.463578118 0.001500000 0.010000000
0.499941654 0.001498255 0.009988365
0.536315784 0.001492537 0.009950245
0.572585551 0.001483048 0.009886986
0.608635846 0.001470047 0.009800310
0.644351459 0.001453829 0.009692193
0.679617094 0.001434724 0.009564828
0.714317387 0.001413087 0.009420579
0.748336920 0.001389291 0.009261941
0.781604647 0.001376216 0.009054032
0.814044948 0.001385465 0.008765866
0.845530683 0.001414162 0.008409938
0.875934527 0.001459371 0.007998893
0.905129148 0.001518143 0.007545353
0.932987359 0.001587556 0.007061771
0.959382255 0.001664741 0.006560307
0.984187328 0.001746913 0.006052718
0.999238763 0.001801136 0.005728361
0.000000000 0.024015725 0.010000000
0.018467992 0.023967992 0.010000000
0.042812849 0.023916640 0.010000000
0.068759576 0.023861908 0.010000000
0.096193754 0.023804038 0.010000000
0.125000963 0.023743273 0.010000000
0.155066785 0.023679852 0.010000000
0.186276799 0.023614018 0.010000000
0.218516587 0.023546012 0.010000000
0.251671729 0.023476075 0.010000000
0.285627806 0.023404448 0.010000000
0.320270399 0.023331373 0.010000000
0.355485089 0.023257092 0.010000000
0.391157455 0.023181845 0.010000000
0.427177711 0.023104137 0.009988420
0.463437192 0.023022052 0.009950878
0.499821135 0.022935958 0.009888223
0.536214628 0.022846285 0.009801699
0.572502633 0.022753503 0.009692844
0.608570009 0.022658125 0.009563463
0.644301528 0.022560696 0.009415584
0.679581991 0.022461819 0.009251327
0.714349718 0.022377187 0.009027753
0.748527135 0.022318049 0.008715405
0.781988139 0.022282024 0.008325815
0.814606192 0.022266616 0.007870901
0.846254504 0.022269258 0.007362796
0.876806202 0.022287353 0.006813680
0.906134486 0.022318306 0.006235634
0.934112769 0.022359565 0.005640509
0.960614794 0.022408643 0.005039810
0.985514736 0.022463146 0.004444604
1.000000000 0.022483877 0.004067003
0.000000000 0.048239180 0.010000000
0.018295238 0.048191448 0.010000000
0.042640095 0.048140095 0.010000000
0.068586822 0.048085363 0.010000000
0.096021000 0.048027494 0.010000000
0.124828209 0.047966728 0.010000000
0.154894030 0.047903308 0.010000000
0.186104045 0.047837474 0.010000000
0.218343833 0.047769467 0.010000000
0.251498975 0.047699530 0.010000000
0.285455052 0.047627904 0.010000000
0.320097958 0.047554711 0.009999218
0.355320163 0.047477612 0.009980428
0.391010037 0.047395799 0.009936661
0.427052993 0.047309579 0.009868330
0.463334302 0.047219308 0.009776217
0.499739097 0.047125396 0.009661435
0.536152393 0.047028296 0.009525401
0.572459096 0.046928502 0.009369800
0.608550630 0.046828401 0.009190972
0.644387233 0.046749786 0.008927317
0.679867995 0.046697288 0.008568933
0.714868004 0.046668822 0.008126244
0.749261661 0.046662125 0.007610302
0.782922881 0.046674810 0.007032598
0.815725270 0.046704405 0.006404883
0.847542307 0.046748392 0.005738999
0.878247499 0.046804251 0.005046730
0.907714525 0.046869488 0.004339663
0.935817360 0.046941666 0.003629071
0.962430384 0.047018434 0.002925812
0.987428460 0.047097545 0.002240255
1.000000000 0.047133628 0.001805214
0.000000000 0.074056518 0.010000000
0.018111117 0.074008785 0.010000000
0.042455974 0.073957433 0.010000000
0.068402701 0.073902701 0.010000000
0.095836879 0.073844832 0.010000000
0.124644088 0.073784066 0.010000000
0.154709909 0.073720645 0.010000000
0.185919923 0.073654811 0.010000000
0.218159711 0.073586805 0.010000000
0.251317921 0.073515718 0.009992332
0.285286096 0.073439554 0.009962086
0.319950129 0.073358439 0.009908487
0.355195617 0.073272609 0.009831492
0.390908007 0.073182352 0.009731431
0.426972608 0.073088016 0.009608992
0.463274591 0.072989992 0.009465191
0.499699011 0.072888720 0.009301346
0.536162338 0.072793545 0.009092443
0.572620551 0.072724984 0.008780289
0.608954496 0.072682476 0.008370210
0.645040714 0.072664289 0.007871269
0.680754826 0.072668463 0.007293387
0.715971729 0.072692855 0.006647144
0.750565794 0.072735188 0.005943596
0.784411049 0.072793087 0.005194092
0.817381360 0.072864129 0.004410103
0.849350593 0.072945875 0.003603066
0.880192759 0.073035906 0.002784243
0.909782150 0.073131859 0.001964594
0.937993445 0.073231446 0.001154677
0.964701799 0.073332482 0.000364563
0.989782914 0.073432901 0.000000000
1.000000000 0.073482633 0.000000000
0.000000000 0.101353889 0.010000000
0.017916441 0.101306156 0.010000000
0.042261298 0.101254803 0.010000000
0.068208025 0.101200072 0.010000000
0.095642202 0.101142202 0.010000000
0.124449411 0.101081437 0.010000000
0.154517414 0.101017198 0.009994547
0.185737157 0.100947716 0.009970225
0.217994894 0.100872979 0.009925353
0.251176529 0.100793107 0.009859120
0.285167819 0.100708275 0.009771089
0.319854371 0.100618716 0.009661190
0.355121653 0.100524712 0.009529711
0.390854991 0.100426601 0.009377281
0.426944587 0.100326171 0.009200633
0.463351701 0.100245277 0.008936736
0.499983807 0.100190713 0.008568118
0.536720387 0.100161461 0.008101075
0.573439612 0.100156187 0.007543141
0.610018523 0.100173278 0.006902908
0.646333222 0.100210892 0.006189838
0.682259071 0.100266998 0.005414073
0.717670881 0.100339422 0.004586251
0.752443102 0.100425892 0.003717319
0.786450000 0.100524078 0.002818365
0.819565826 0.100631630 0.001900455
0.851664968 0.100746219 0.000974484
0.882622088 0.100865562 0.000051050
0.912312237 0.100987458 0.000000000
0.940610950 0.101109802 0.000000000
0.967394318 0.101230612 0.000000000
0.992539042 0.101348037 0.000000000
1.000000000 0.101409033 0.000000000
0.000000000 0.130017444 0.010000000
0.017712021 0.129969712 0.010000000
0.042057125 0.129918266 0.009999382
0.068008229 0.129861893 0.009988440
0.095452834 0.129800113 0.009962372
0.124277194 0.129732916 0.009919495
0.154367445 0.129660334 0.009858421
0.185609595 0.129582449 0.009778081
0.217889519 0.129499392 0.009677742
0.251092954 0.129411345 0.009557009
0.285105502 0.129318542 0.009415832
0.319812668 0.129221278 0.009254465
0.355153505 0.129134995 0.009028195
0.391060741 0.129073434 0.008697851
0.427417312 0.129036409 0.008266458
0.464104551 0.129023350 0.007738568
0.501002329 0.129033332 0.007120115
0.537989220 0.129065121 0.006418250
0.574942680 0.129117205 0.005641178
0.611739225 0.129187841 0.004797969
0.648254627 0.129275097 0.003898379
0.684364102 0.129376897 0.002952664
0.719942493 0.129491064 0.001971395
0.754864461 0.129615359 0.000965285
0.789004646 0.129747527 0.000000000
0.822237830 0.129885327 0.000000000
0.854439076 0.130026570 0.000000000
0.885483853 0.130169148 0.000000000
0.915248136 0.130311055 0.000000000
0.943608485 0.130450412 0.000000000
0.970442101 0.130585474 0.000000000
0.995626857 0.130714648 0.000000000
1.000000000 0.130783816 0.000000000
0.000000000 0.159927334 0.009959993
0.017527191 0.159874907 0.009928699
0.041890371 0.159816684 0.009882892
0.067861319 0.159752869 0.009822338
0.095326190 0.159683489 0.009745605
0.124171037 0.159608610 0.009651510
0.154281804 0.159528334 0.009539146
0.185544315 0.159442814 0.009407905
0.217844275 0.159352247 0.009257482
0.251113484 0.159269876 0.009048891
0.285283232 0.159208885 0.008743780
0.320239982 0.159169928 0.008341824
0.355868460 0.159153250 0.007844353
0.392051741 0.159158698 0.007254269
0.428671358 0.159185753 0.006575941
0.465607433 0.159233554 0.005815070
0.502738825 0.159300936 0.004978544
0.539943298 0.159386464 0.004074279
0.577097698 0.159488476 0.003111038
0.614078134 0.159605121 0.002098262
0.650760167 0.159734408 0.001045877
0.687018998 0.159874245 0.000000000
0.722729645 0.160022479 0.000000000
0.757767123 0.160176944 0.000000000
0.792006600 0.160335488 0.000000000
0.825323551 0.160496018 0.000000000
0.857593880 0.160656525 0.000000000
0.888694037 0.160815109 0.000000000
0.918501097 0.160970005 0.000000000
0.946892828 0.161119595 0.000000000
0.973747725 0.161262419 0.000000000
0.998945025 0.161397181 0.000000000
1.000000000 0.161470715 0.000000000
0.000000000 0.190946783 0.009727133
0.017414447 0.190888513 0.009656883
0.041795027 0.190823764 0.009567574
0.067783858 0.190753243 0.009462314
0.095266893 0.190677053 0.009340171
0.124135816 0.190596967 0.009195535
0.154330912 0.190528500 0.008981961
0.185755424 0.190476817 0.008684439
0.218298858 0.190443296 0.008299736
0.251849072 0.190428926 0.007826204
0.286292270 0.190434303 0.007263772
0.321513039 0.190459643 0.006613913
0.357394412 0.190504787 0.005879580
0.393817958 0.190569228 0.005065115
0.430663899 0.190652133 0.004176130
0.467811251 0.190752376 0.003219377
0.505137970 0.190868571 0.002202593
0.542521129 0.190999114 0.001134335
0.579837088 0.191142217 0.000023809
0.616961681 0.191295954 0.000000000
0.653770401 0.191458306 0.000000000
0.690138579 0.191627195 0.000000000
0.725941565 0.191800533 0.000000000
0.761054888 0.191976256 0.000000000
0.795354417 0.192152360 0.000000000
0.828716490 0.192326936 0.000000000
0.861018036 0.192498194 0.000000000
0.892136668 0.192664488 0.000000000
0.921950754 0.192824334 0.000000000
0.950339464 0.192976421 0.000000000
0.977182787 0.193119616 0.000000000
1.000000000 0.193252966 0.000000000
1.000000000 0.193326346 0.000000000
0.000000000 0.222960896 0.009294437
0.017380002 0.222899817 0.009184079
0.041827614 0.222843914 0.009012957
0.067938936 0.222797628 0.008778563
0.095606682 0.222763090 0.008474583
0.124722356 0.222742150 0.008095871
0.155176122 0.222736340 0.007638572
0.186856711 0.222746861 0.007100205
0.219651372 0.222774560 0.006479712
0.253445847 0.222819929 0.005777474
0.288124390 0.222883107 0.004995294
0.323569809 0.222963888 0.004136347
0.359663546 0.223061737 0.003205109
0.396285774 0.223175814 0.002207249
0.433315522 0.223305001 0.001149515
0.470630817 0.223447932 0.000039585
0.508108847 0.223603032 0.000000000
0.545626123 0.223768554 0.000000000
0.583058668 0.223942621 0.000000000
0.620282189 0.224123263 0.000000000
0.657172265 0.224308467 0.000000000
0.693604525 0.224496211 0.000000000
0.729454815 0.224684504 0.000000000
0.764599360 0.224871428 0.000000000
0.798914905 0.225055167 0.000000000
0.832278844 0.225234037 0.000000000
0.864569319 0.225406512 0.000000000
0.895665307 0.225571244 0.000000000
0.925446670 0.225727076 0.000000000
0.953794184 0.225873050 0.000000000
0.980589538 0.226008408 0.000000000
1.000000000 0.226132587 0.000000000
1.000000000 0.226200581 0.000000000
0.000000000 0.255980663 0.008310934
0.018014077 0.255965145 0.008024087
0.042676889 0.255961373 0.007650206
0.069008845 0.255968656 0.007208240
0.096900080 0.255988524 0.006694360
0.126239596 0.256022237 0.006105832
0.156915146 0.256070768 0.005441119
0.188813172 0.256134778 0.004699944
0.221818766 0.256214608 0.003883321
0.255815664 0.256310278 0.002993556
0.290686281 0.256421494 0.002034212
0.326311767 0.256547656 0.001010053
0.362572095 0.256687881 0.000000000
0.399346170 0.256841024 0.000000000
0.436511961 0.257005711 0.000000000
0.473946651 0.257180371 0.000000000
0.511526799 0.257363270 0.000000000
0.549128516 0.257552555 0.000000000
0.586627638 0.257746292 0.000000000
0.623899914 0.257942509 0.000000000
0.660821180 0.258139234 0.000000000
0.697267537 0.258334541 0.000000000
0.733115514 0.258526581 0.000000000
0.768242214 0.258713621 0.000000000
0.802525458 0.258894077 0.000000000
0.835843888 0.259066536 0.000000000
0.868077067 0.259229782 0.000000000
0.899105540 0.259382811 0.000000000
0.928810873 0.259524841 0.000000000
0.957075664 0.259655315 0.000000000
0.983783518 0.259773900 0.000000000
1.000000000 0.259880472 0.000000000
1.000000000 0.259937154 0.000000000
0.000000000 0.290037673 0.006374581
0.019616628 0.290061097 0.005940439
0.044462198 0.290102122 0.005395691
0.070980000 0.290155111 0.004780351
0.099057707 0.290221014 0.004092959
0.128581931 0.290300534 0.003333081
0.159438137 0.290394106 0.002501380
0.191510598 0.290501880 0.001599664
0.224682372 0.290623721 0.000630895
0.258835320 0.290759206 0.000000000
0.293850151 0.290907635 0.000000000
0.329606492 0.291068047 0.000000000
0.365982988 0.291239241 0.000000000
0.402857423 0.291419803 0.000000000
0.440106858 0.291608137 0.000000000
0.477607788 0.291802498 0.000000000
0.515236307 0.292001034 0.000000000
0.552868288 0.292201822 0.000000000
0.590379557 0.292402913 0.000000000
0.627646080 0.292602367 0.000000000
0.664544135 0.292798302 0.000000000
0.700950484 0.292988925 0.000000000
0.736742528 0.293172574 0.000000000
0.771798452 0.293347749 0.000000000
0.805997351 0.293513139 0.000000000
0.839219326 0.293667653 0.000000000
0.871345569 0.293810431 0.000000000
0.902258410 0.293940862 0.000000000
0.931841337 0.294058589 0.000000000
0.959978989 0.294163506 0.000000000
0.986557112 0.294255753 0.000000000
1.000000000 0.294335700 0.000000000
1.000000000 0.294374480 0.000000000
0.001215642 0.324991478 0.003609164
0.022061587 0.325046182 0.003060491
0.047054357 0.325123950 0.002379788
0.073719927 0.325214017 0.001628458
0.101943642 0.325316788 0.000807283
0.131609861 0.325432438 0.000000000
0.162601899 0.325560895 0.000000000
0.194801999 0.325701831 0.000000000
0.228091331 0.325854666 0.000000000
0.262350026 0.326018565 0.000000000
0.297457237 0.326192461 0.000000000
0.333291221 0.326375064 0.000000000
0.369729456 0.326564893 0.000000000
0.406648764 0.326760298 0.000000000
0.443925464 0.326959499 0.000000000
0.481435533 0.327160619 0.000000000
0.519054777 0.327361725 0.000000000
0.556659009 0.327560866 0.000000000
0.594124232 0.327756118 0.000000000
0.631326816 0.327945619 0.000000000
0.668143674 0.328127617 0.000000000
0.704452426 0.328300500 0.000000000
0.740131550 0.328462837 0.000000000
0.775060519 0.328613407 0.000000000
0.809119909 0.328751224 0.000000000
0.842191497 0.328875563 0.000000000
0.874158320 0.328985971 0.000000000
0.904904713 0.329082281 0.000000000
0.934316311 0.329164609 0.000000000
0.962280020 0.329233354 0.000000000
0.988683954 0.329289182 0.000000000
1.000000000 0.329333005 0.000000000
1.000000000 0.329346664 0.000000000
0.004505246 0.360693440 0.000171511
0.025191116 0.360771479 0.000000000
0.050292884 0.360877320 0.000000000
0.077065356 0.360995192 0.000000000
0.105391700 0.361124988 0.000000000
0.135154178 0.361266387 0.000000000
0.166234109 0.361418849 0.000000000
0.198511865 0.361581604 0.000000000
0.231866887 0.361753659 0.000000000
0.266177737 0.361933810 0.000000000
0.301322178 0.362120655 0.000000000
0.337177268 0.362312616 0.000000000
0.373619485 0.362507969 0.000000000
0.410524867 0.362704870 0.000000000
0.447769170 0.362901395 0.000000000
0.485228036 0.363095576 0.000000000
0.522777166 0.363285441 0.000000000
0.560292507 0.363469055 0.000000000
0.597650428 0.363644561 0.000000000
0.634727905 0.363810222 0.000000000
0.671402685 0.363964460 0.000000000
0.707553453 0.364105893 0.000000000
0.743059973 0.364233366 0.000000000
0.777803213 0.364345987 0.000000000
0.811665453 0.364443142 0.000000000
0.844530360 0.364524524 0.000000000
0.876283040 0.364590136 0.000000000
0.906810055 0.364640305 0.000000000
0.935999414 0.364675674 0.000000000
0.963740518 0.364697197 0.000000000
0.989924079 0.364706117 0.000000000
1.000000000 0.364703546 0.000000000
1.000000000 0.364682954 0.000000000
0.008333273 0.396988463 0.000000000
0.028820478 0.397081739 0.000000000
0.053990892 0.397206483 0.000000000
0.080827140 0.397342358 0.000000000
0.109210379 0.397488784 0.000000000
0.139020943 0.397644986 0.000000000
0.170138326 0.397809989 0.000000000
0.202441200 0.397982621 0.000000000
0.235807452 0.398161520 0.000000000
0.270114253 0.398345148 0.000000000
0.305238150 0.398531811 0.000000000
0.341055184 0.398719684 0.000000000
0.377441017 0.398906840 0.000000000
0.414271091 0.399091284 0.000000000
0.451420785 0.399270993 0.000000000
0.488765598 0.399443949 0.000000000
0.526181323 0.399608186 0.000000000
0.563544237 0.399761829 0.000000000
0.600731278 0.399903137 0.000000000
0.637620230 0.400030542 0.000000000
0.674089884 0.400142689 0.000000000
0.710020199 0.400238470 0.000000000
0.745292434 0.400317059 0.000000000
0.779789275 0.400377937 0.000000000
0.813394919 0.400420917 0.000000000
0.845995146 0.400446155 0.000000000
0.877477352 0.400454165 0.000000000
0.907734172 0.400444462 0.000000000
0.936659678 0.400416967 0.000000000
0.964145201 0.400373539 0.000000000
0.990095349 0.400319770 0.000000000
1.000000000 0.400268417 0.000000000
1.000000000 0.400220684 0.000000000
0.012492895 0.433716256 0.000000000
0.032743585 0.433816642 0.000000000
0.057940659 0.433950735 0.000000000
0.084795844 0.434094411 0.000000000
0.113188467 0.434246657 0.000000000
0.142997117 0.434406282 0.000000000
0.174099645 0.434571924 0.000000000
0.206373207 0.434742047 0.000000000
0.239694320 0.434914963 0.000000000
0.273938952 0.435088843 0.000000000
0.308982626 0.435261743 0.000000000
0.344700552 0.435431634 0.000000000
0.380967772 0.435596432 0.000000000
0.417659323 0.435754035 0.000000000
0.454650407 0.435902362 0.000000000
0.491816577 0.436039395 0.000000000
0.529033922 0.436163218 0.000000000
0.566179249 0.436272063 0.000000000
0.603130276 0.436364349 0.000000000
0.639765798 0.436438727 0.000000000
0.675965863 0.436494111 0.000000000
0.711611914 0.436529719 0.000000000
0.746586927 0.436545099 0.000000000
0.780777898 0.436539265 0.000000000
0.814077755 0.436510029 0.000000000
0.846374601 0.436458070 0.000000000
0.877585843 0.436392581 0.000000000
0.907651664 0.436329160 0.000000000
0.936458873 0.436268395 0.000000000
0.963893051 0.436210525 0.000000000
0.989839778 0.436155794 0.000000000
1.000000000 0.436104441 0.000000000
1.000000000 0.436056708 0.000000000
0.016761505 0.470712724 0.000000000
0.036739097 0.470812186 0.000000000
0.061919742 0.470945813 0.000000000
0.088747877 0.471086814 0.000000000
0.117101195 0.471233787 0.000000000
0.146856729 0.471385173 0.000000000
0.177890882 0.471539261 0.000000000
0.210079486 0.471694199 0.000000000
0.243297886 0.471848016 0.000000000
0.277421038 0.471998636 0.000000000
0.312323640 0.472143911 0.000000000
0.347880271 0.472281653 0.000000000
0.383965549 0.472409666 0.000000000
0.420454308 0.472525786 0.000000000
0.457221776 0.472627923 0.000000000
0.494143765 0.472714101 0.000000000
0.531096860 0.472782503 0.000000000
0.567958611 0.472831516 0.000000000
0.604607717 0.472859767 0.000000000
0.640924369 0.472866108 0.000000000
0.676796987 0.472847182 0.000000000
0.712112351 0.472801215 0.000000000
0.746767626 0.472731707 0.000000000
0.780723703 0.472660080 0.000000000
0.813878845 0.472590143 0.000000000
0.846118633 0.472522137 0.000000000
0.877328647 0.472456302 0.000000000
0.907394469 0.472392882 0.000000000
0.936201678 0.472332116 0.000000000
0.963635856 0.472274247 0.000000000
0.989582583 0.472219515 0.000000000
1.000000000 0.472168162 0.000000000
1.000000000 0.472120430 0.000000000
0.020907263 0.507811458 0.000000000
0.040576928 0.507902170 0.000000000
0.065697489 0.508025375 0.000000000
0.092452018 0.508153083 0.000000000
0.120716771 0.508283550 0.000000000
0.150367427 0.508414892 0.000000000
0.181279139 0.508545096 0.000000000
0.213326620 0.508672041 0.000000000
0.246384239 0.508793516 0.000000000
0.280326147 0.508907246 0.000000000
0.315026415 0.509010926 0.000000000
0.350359194 0.509102254 0.000000000
0.386198885 0.509178967 0.000000000
0.422420323 0.509238888 0.000000000
0.458898963 0.509279963 0.000000000
0.495511084 0.509300306 0.000000000
0.532135649 0.509297620 0.000000000
0.568659559 0.509267339 0.000000000
0.604964165 0.509207800 0.000000000
0.640979970 0.509131880 0.000000000
0.676652336 0.509056633 0.000000000
0.711867026 0.508982352 0.000000000
0.746509619 0.508909277 0.000000000
0.780465696 0.508837650 0.000000000
0.813620838 0.508767713 0.000000000
0.845860626 0.508699707 0.000000000
0.877070640 0.508633873 0.000000000
0.907136462 0.508570452 0.000000000
0.935943671 0.508509686 0.000000000
0.963377849 0.508451817 0.000000000
0.989324576 0.508397085 0.000000000
1.000000000 0.508345732 0.000000000
1.000000000 0.508298000 0.000000000
0.024695894 0.544845286 0.000000000
0.044025014 0.544919731 0.000000000
0.069041820 0.545022543 0.000000000
0.095676197 0.545126334 0.000000000
0.123803173 0.545229060 0.000000000
0.153297274 0.545328560 0.000000000
0.184032613 0.545422569 0.000000000
0.215882984 0.545508740 0.000000000
0.248721989 0.545584670 0.000000000
0.282423176 0.545647934 0.000000000
0.316860198 0.545696113 0.000000000
0.351906982 0.545726839 0.000000000
0.387437916 0.545737832 0.000000000
0.423332804 0.545725160 0.000000000
0.459473880 0.545684472 0.000000000
0.495744111 0.545615265 0.000000000
0.532102993 0.545538570 0.000000000
0.568461875 0.545461875 0.000000000
0.604706338 0.545385421 0.000000000
0.640721963 0.545309450 0.000000000
0.676394329 0.545234203 0.000000000
0.711609019 0.545159922 0.000000000
0.746251612 0.545086847 0.000000000
0.780207689 0.545015220 0.000000000
0.813362831 0.544945283 0.000000000
0.845602619 0.544877277 0.000000000
0.876812633 0.544811443 0.000000000
0.906878454 0.544748022 0.000000000
0.935685664 0.544687257 0.000000000
0.963119841 0.544629387 0.000000000
0.989066568 0.544574656 0.000000000
1.000000000 0.544523303 0.000000000
1.000000000 0.544475570 0.000000000
0.027897617 0.581647851 0.000000000
0.046856192 0.581698917 0.000000000
0.071726104 0.581771479 0.000000000
0.098194383 0.581840852 0.000000000
0.126135033 0.581904743 0.000000000
0.155421641 0.581960760 0.000000000
0.185927481 0.582006433 0.000000000
0.217525640 0.582039237 0.000000000
0.250089158 0.582056626 0.000000000
0.283492277 0.582055659 0.000000000
0.317615749 0.582031113 0.000000000
0.352335656 0.581979783 0.000000000
0.387554461 0.581906659 0.000000000
0.423226828 0.581831412 0.000000000
0.459242452 0.581755441 0.000000000
0.495486915 0.581678987 0.000000000
0.531845798 0.581602292 0.000000000
0.568204680 0.581525597 0.000000000
0.604449143 0.581449143 0.000000000
0.640464767 0.581373172 0.000000000
0.676137134 0.581297925 0.000000000
0.711351823 0.581223643 0.000000000
0.745994416 0.581150569 0.000000000
0.779950494 0.581078942 0.000000000
0.813105636 0.581009005 0.000000000
0.845345424 0.580940999 0.000000000
0.876555438 0.580875164 0.000000000
0.906621259 0.580811744 0.000000000
0.935428468 0.580750978 0.000000000
0.962862646 0.580693109 0.000000000
0.988809373 0.580638377 0.000000000
1.000000000 0.580587024 0.000000000
1.000000000 0.580539292 0.000000000
0.030294031 0.618055187 0.000000000
0.048855044 0.618076251 0.000000000
0.073536002 0.618108941 0.000000000
0.099793417 0.618133653 0.000000000
0.127500476 0.618147896 0.000000000
0.156530508 0.618148916 0.000000000
0.186761698 0.618132006 0.000000000
0.218069135 0.618093572 0.000000000
0.250330388 0.618031603 0.000000000
0.283485530 0.617961666 0.000000000
0.317441608 0.617890039 0.000000000
0.352084200 0.617816964 0.000000000
0.387298890 0.617742683 0.000000000
0.422971256 0.617667436 0.000000000
0.458986881 0.617591465 0.000000000
0.495231344 0.617515011 0.000000000
0.531590226 0.617438316 0.000000000
0.567949109 0.617361621 0.000000000
0.604193572 0.617285167 0.000000000
0.640209196 0.617209196 0.000000000
0.675881563 0.617133949 0.000000000
0.711096252 0.617059667 0.000000000
0.745738845 0.616986593 0.000000000
0.779694922 0.616914966 0.000000000
0.812850064 0.616845029 0.000000000
0.845089852 0.616777023 0.000000000
0.876299866 0.616711189 0.000000000
0.906365688 0.616647768 0.000000000
0.935172897 0.616587002 0.000000000
0.962607075 0.616529133 0.000000000
0.988553802 0.616474401 0.000000000
1.000000000 0.616423048 0.000000000
1.000000000 0.616375316 0.000000000
0.031684970 0.653907192 0.000000000
0.049826978 0.653891339 0.000000000
0.074286004 0.653872096 0.000000000
0.100303189 0.653837180 0.000000000
