luts/cinepi-soft-portrait.cube
TITLE "CinePi Soft Portrait"
LUT_3D_SIZE 33
DOMAIN_MIN 0.0 0.0 0.0
DOMAIN_MAX 1.0 1.0 1.0
0.000000000 0.000000000 0.000000000
0.028539044 0.000348813 0.000348813
0.057340852 0.000700838 0.000700838
0.086387906 0.001055860 0.001055860
0.115662689 0.001413665 0.001413665
0.145147682 0.001774040 0.001774040
0.174825369 0.002136770 0.002136770
0.204678231 0.002501641 0.002501641
0.234688752 0.002868439 0.002868439
0.264839413 0.003236950 0.003236950
0.295112697 0.003606959 0.003606959
0.325491086 0.003978253 0.003978253
0.355957063 0.004350618 0.004350618
0.386493111 0.004723839 0.004723839
0.417081711 0.005097703 0.005097703
0.447705347 0.005471994 0.005471994
0.478346500 0.005846500 0.005846500
0.508987653 0.006221006 0.006221006
0.539611289 0.006595297 0.006595297
0.570199889 0.006969161 0.006969161
0.600735937 0.007342382 0.007342382
0.631201957 0.007714761 0.007714725
0.661609401 0.008095740 0.008071492
0.691963502 0.008492688 0.008401093
0.722243688 0.008904374 0.008704841
0.752429340 0.009329549 0.008984073
0.782499798 0.009766952 0.009240147
0.812434377 0.010215313 0.009474430
0.842212385 0.010673359 0.009688297
0.871813133 0.011139820 0.009883121
0.901215947 0.011613429 0.010060263
0.930400185 0.012092930 0.010221072
0.959345246 0.012577082 0.010366877
0.001173430 0.029363661 0.001173430
0.029712474 0.029712474 0.001522243
0.058514282 0.030064499 0.001874267
0.087561336 0.030419521 0.002229289
0.116836118 0.030777326 0.002587095
0.146321112 0.031137701 0.002947470
0.175998798 0.031500431 0.003310200
0.205851661 0.031865302 0.003675071
0.235862181 0.032232100 0.004041869
0.266012842 0.032600611 0.004410379
0.296286126 0.032970620 0.004780389
0.326664516 0.033341914 0.005151683
0.357130493 0.033714279 0.005524048
0.387666541 0.034087500 0.005897269
0.418255141 0.034461364 0.006271132
0.448878777 0.034835655 0.006645424
0.479519930 0.035210161 0.007019930
0.510161083 0.035584667 0.007394435
0.540785652 0.035959270 0.007768260
0.571411477 0.036345541 0.008123511
0.602037024 0.036748595 0.008451982
0.632641920 0.037167266 0.008754888
0.663205709 0.037600360 0.009033482
0.693707875 0.038046664 0.009289051
0.724127850 0.038504946 0.009522904
0.754445032 0.038973964 0.009736372
0.784638796 0.039452469 0.009930792
0.814688514 0.039939209 0.010107506
0.844573561 0.040432935 0.010267854
0.874273334 0.040932405 0.010413164
0.903767264 0.041436385 0.010544748
0.933034827 0.041943662 0.010663896
0.962055557 0.042453037 0.010771866
0.002357663 0.058997678 0.002357663
0.030896708 0.059346491 0.002706476
0.059698516 0.059698516 0.003058501
0.088745570 0.060053538 0.003413523
0.118020352 0.060411343 0.003771329
0.147505345 0.060771718 0.004131703
0.177183032 0.061134448 0.004494433
0.207035894 0.061499319 0.004859304
0.237046415 0.061866117 0.005226102
0.267197076 0.062234628 0.005594613
0.297470360 0.062604637 0.005964622
0.327848749 0.062975931 0.006335917
0.358314727 0.063348296 0.006708281
0.388850774 0.063721517 0.007081502
0.419439375 0.064095380 0.007455366
0.450066327 0.064470778 0.007827999
0.480753552 0.064860641 0.008179469
0.511493015 0.065267916 0.008504819
0.542264575 0.065691516 0.008805149
0.573047984 0.066130316 0.009081608
0.603822907 0.066583162 0.009335391
0.634568931 0.067048875 0.009567733
0.665265581 0.067526257 0.009779896
0.695892339 0.068014091 0.009973169
0.726428653 0.068511153 0.010148853
0.756853954 0.069016210 0.010308261
0.787147668 0.069528032 0.010452706
0.817289235 0.070045389 0.010583496
0.847258115 0.070567059 0.010701927
0.877033808 0.071091835 0.010809277
0.906595862 0.071618524 0.010906800
0.935923888 0.072145954 0.010995716
0.964997568 0.072672979 0.011077211
0.003551980 0.088884027 0.003551980
0.032091025 0.089232840 0.003900793
0.060892833 0.089584865 0.004252818
0.089939887 0.089939887 0.004607840
0.119214669 0.090297692 0.004965646
0.148699662 0.090658067 0.005326021
0.178377349 0.091020797 0.005688750
0.208230211 0.091385668 0.006053621
0.238240732 0.091752466 0.006420419
0.268391393 0.092120977 0.006788930
0.298664677 0.092490986 0.007158940
0.329043066 0.092862280 0.007530234
0.359517119 0.093237337 0.007898561
0.390109327 0.093629278 0.008243702
0.420805716 0.094039071 0.008563671
0.451586413 0.094465716 0.008859432
0.482431412 0.094908171 0.009132015
0.513320594 0.095365353 0.009382506
0.544233740 0.095836148 0.009612042
0.575150543 0.096319412 0.009821804
0.606050623 0.096813977 0.010013009
0.636913544 0.097318657 0.010186902
0.667718829 0.097832249 0.010344748
0.698445969 0.098353544 0.010487830
0.729074444 0.098881326 0.010617434
0.759583733 0.099414380 0.010734847
0.789953329 0.099951496 0.010841351
0.820162754 0.100491472 0.010938212
0.850191569 0.101033120 0.011026676
0.880019391 0.101575273 0.011107962
0.909625901 0.102116780 0.011183256
0.938990861 0.102656522 0.011253704
0.968094120 0.103193407 0.011320410
0.004755661 0.119004684 0.004755661
0.033294705 0.119353497 0.005104474
0.062096513 0.119705522 0.005456499
0.091143567 0.120060544 0.005811521
0.120418350 0.120418350 0.006169326
0.149903343 0.120778725 0.006529701
0.179581030 0.121141455 0.006892431
0.209433892 0.121506326 0.007257302
0.239444412 0.121873123 0.007624100
0.269611855 0.122247228 0.007984220
0.299953113 0.122639896 0.008320242
0.330449919 0.123050662 0.008632329
0.361082692 0.123478625 0.008921295
0.391831703 0.123922834 0.009188035
0.422677082 0.124382290 0.009433509
0.453598835 0.124855954 0.009658742
0.484576856 0.125342749 0.009864814
0.515590943 0.125841566 0.010052852
0.546620811 0.126351269 0.010224028
0.577646107 0.126870698 0.010379543
0.608646426 0.127398676 0.010520629
0.639601322 0.127934013 0.010648534
0.670490326 0.128475512 0.010764521
0.701292958 0.129021971 0.010869856
0.731988744 0.129572190 0.010965805
0.762557225 0.130124975 0.011053622
0.792977977 0.130679143 0.011134548
0.823230620 0.131233525 0.011209800
0.853294831 0.131786972 0.011280566
0.883150361 0.132338360 0.011347998
0.912777040 0.132886590 0.011413207
0.942154795 0.133430597 0.011477259
0.971263658 0.133969350 0.011541162
0.005967985 0.149341627 0.005967985
0.034507029 0.149690440 0.006316798
0.063308837 0.150042464 0.006668823
0.092355891 0.150397487 0.007023845
0.121630674 0.150755292 0.007381650
0.151116017 0.151115783 0.007741850
0.180825317 0.151489051 0.008088773
0.210760048 0.151881212 0.008412710
0.240901132 0.152291531 0.008714226
0.271229304 0.152719212 0.008993981
0.301725132 0.153163403 0.009252719
0.332369021 0.153623197 0.009491263
0.363141231 0.154097639 0.009710512
0.394021889 0.154585730 0.009911428
0.424991000 0.155086431 0.010095035
0.456028465 0.155598665 0.010262412
0.487114091 0.156121329 0.010414682
0.518227606 0.156653289 0.010553006
0.549348677 0.157193392 0.010678580
0.580456920 0.157740470 0.010792622
0.611531916 0.158293340 0.010896369
0.642553225 0.158850815 0.010991068
0.673500404 0.159411706 0.011077968
0.704353015 0.159974824 0.011158314
0.735090644 0.160538991 0.011233340
0.765692913 0.161103039 0.011304264
0.796139495 0.161665816 0.011372275
0.826410123 0.162226193 0.011438534
0.856484608 0.162783065 0.011504163
0.886342847 0.163335357 0.011570240
0.915964840 0.163882025 0.011637793
0.945330693 0.164422064 0.011707795
0.974420637 0.164954511 0.011781159
0.007188231 0.179876830 0.007188231
0.035727276 0.180225643 0.007537045
0.064536120 0.180580013 0.007885551
0.093633565 0.180951832 0.008215378
0.123006380 0.181342315 0.008524167
0.152635828 0.181750842 0.008812314
0.182502973 0.182176725 0.009080315
0.212588693 0.182619215 0.009328757
0.242873689 0.183077504 0.009558318
0.273338496 0.183550731 0.009769755
0.303963498 0.184037979 0.009963906
0.334728934 0.184538289 0.010141677
0.365614919 0.185050656 0.010304038
0.396601449 0.185574038 0.010452018
0.427668420 0.186107359 0.010586695
0.458795642 0.186649512 0.010709194
0.489962850 0.187199369 0.010820672
0.521149717 0.187755780 0.010922321
0.552335876 0.188317579 0.011015351
0.583500926 0.188883593 0.011100989
0.614624452 0.189452640 0.011180471
0.645686035 0.190023540 0.011255033
0.676665271 0.190595116 0.011325904
0.707541781 0.191166201 0.011394300
0.738295229 0.191735641 0.011461418
0.768905331 0.192302299 0.011528425
0.799351872 0.192865063 0.011596457
0.829614717 0.193422846 0.011666608
0.859673824 0.193974592 0.011739925
0.889509257 0.194519281 0.011817406
0.919101195 0.195055931 0.011899986
0.948429946 0.195583603 0.011988539
0.977475955 0.196101405 0.012083870
0.008514336 0.210625156 0.008366353
0.037169815 0.211012780 0.008656949
0.066131743 0.211418179 0.008928913
0.095381515 0.211840773 0.009182577
0.124900325 0.212279921 0.009418368
0.154669178 0.212734916 0.009636813
0.184668899 0.213204991 0.009838526
0.214880143 0.213689322 0.010024206
0.245283406 0.214187034 0.010194633
0.275859037 0.214697202 0.010350659
0.306587248 0.215218854 0.010493205
0.337448130 0.215750979 0.010623253
0.368421663 0.216292528 0.010741840
0.399487731 0.216842423 0.010850050
0.430626136 0.217399555 0.010949012
0.461816609 0.217962792 0.011039885
0.493038827 0.218530986 0.011123857
0.524272429 0.219102975 0.011202139
0.555497024 0.219677586 0.011275951
0.586692212 0.220253645 0.011346521
0.617837595 0.220829978 0.011415074
0.648912792 0.221405416 0.011482828
0.679897455 0.221978802 0.011550986
0.710771279 0.222548991 0.011620725
0.741514021 0.223114862 0.011693196
0.772105506 0.223675315 0.011769511
0.802525651 0.224229280 0.011850741
0.832754465 0.224775719 0.011937907
0.862772073 0.225313632 0.012031975
0.892558719 0.225842059 0.012133848
0.922094783 0.226360084 0.012244366
0.951360785 0.226866841 0.012364293
0.980337403 0.227361512 0.012494319
0.010344140 0.241701434 0.009302349
0.039139171 0.242135576 0.009523169
0.068234617 0.242585480 0.009728374
0.097611597 0.243050477 0.009918434
0.127251045 0.243529838 0.010093906
0.157133725 0.244022775 0.010255438
0.187240236 0.244528447 0.010403755
0.217551024 0.245045959 0.010539664
0.248046395 0.245574374 0.010664036
0.278706525 0.246112708 0.010777813
0.309511472 0.246659939 0.010881990
0.340441192 0.247215010 0.010977619
0.371475546 0.247776833 0.011065796
0.402594320 0.248344297 0.011147653
0.433777236 0.248916265 0.011224359
0.465003963 0.249491587 0.011297105
0.496254137 0.250069100 0.011367100
0.527507372 0.250647633 0.011435565
0.558743275 0.251226014 0.011503723
0.589941461 0.251803072 0.011572794
0.621081564 0.252377645 0.011643987
0.652143258 0.252948582 0.011718493
0.683106265 0.253514749 0.011797479
0.713950371 0.254075032 0.011882077
0.744655440 0.254628346 0.011973384
0.775201428 0.255173633 0.012072448
0.805568393 0.255709871 0.012180268
0.835736511 0.256236078 0.012297782
0.865686086 0.256751314 0.012425866
0.895397561 0.257254683 0.012565325
0.924851530 0.257745344 0.012716890
0.954028748 0.258222505 0.012881209
0.982910139 0.258685434 0.013058849
0.012646849 0.273077617 0.010010535
0.041556366 0.273549921 0.010174112
0.070760000 0.274035887 0.010325223
0.100238608 0.274534761 0.010464469
0.129972879 0.275045729 0.010592530
0.159943348 0.275567929 0.010710167
0.190130404 0.276100449 0.010818212
0.220514301 0.276642331 0.010917566
0.251075167 0.277192578 0.011009191
0.281793023 0.277750154 0.011094104
0.312647786 0.278313989 0.011173374
0.343619291 0.278882989 0.011248111
0.374687297 0.279456030 0.011319461
0.405831507 0.280031972 0.011388601
0.437031578 0.280609658 0.011456729
0.468267133 0.281187923 0.011525061
0.499517783 0.281765595 0.011594818
0.530763133 0.282341499 0.011667225
0.561982802 0.282914469 0.011743500
0.593156435 0.283483343 0.011824847
0.624263718 0.284046976 0.011912450
0.655284392 0.284604240 0.012007467
0.686198268 0.285154029 0.012111018
0.716985237 0.285695267 0.012224185
0.747625290 0.286226908 0.012348000
0.778098525 0.286747944 0.012483440
0.808385163 0.287257407 0.012631424
0.838465558 0.287754374 0.012792799
0.868320214 0.288237969 0.012968343
0.897929787 0.288707372 0.013158753
0.927275104 0.289161815 0.013364643
0.956337169 0.289600592 0.013586540
0.985097172 0.290023058 0.013824874
0.015335056 0.304706784 0.010533535
0.044333592 0.305208761 0.010652602
0.073619681 0.305722213 0.010762486
0.103173934 0.306246301 0.010863909
0.132976810 0.306780138 0.010957668
0.163008633 0.307322789 0.011044628
0.193249593 0.307873277 0.011125721
0.223679768 0.308430585 0.011201936
0.254279125 0.308993662 0.011274315
0.285027542 0.309561425 0.011343948
0.315904814 0.310132764 0.011411964
0.346890668 0.310706546 0.011479525
0.377964779 0.311281622 0.011547823
0.409106780 0.311856827 0.011618068
0.440296278 0.312430990 0.011691482
0.471512870 0.313002934 0.011769296
0.502736153 0.313571483 0.011852737
0.533945741 0.314135467 0.011943025
0.565121282 0.314693727 0.012041364
0.596242467 0.315245119 0.012148935
0.627289048 0.315788518 0.012266889
0.658240851 0.316322824 0.012396341
0.689077789 0.316846968 0.012538361
0.719779880 0.317359913 0.012693967
0.750327253 0.317860661 0.012864121
0.780700168 0.318348257 0.013049722
0.810879024 0.318821793 0.013251597
0.840844372 0.319280410 0.013470496
0.870576928 0.319723306 0.013707089
0.900057582 0.320149735 0.013961959
0.929267410 0.320559015 0.014235594
0.958187681 0.320950527 0.014528387
0.986799868 0.321323721 0.014840629
0.018318259 0.336540985 0.010915519
0.047380001 0.337064031 0.011002984
0.076722469 0.337596275 0.011084678
0.106326042 0.338136804 0.011161441
0.136170967 0.338684657 0.011234175
0.166237368 0.339238834 0.011303846
0.196505256 0.339798298 0.011371476
0.226954544 0.340361978 0.011438133
0.257565057 0.340928773 0.011504935
0.288316545 0.341497559 0.011573033
0.319188694 0.342067191 0.011643610
0.350161142 0.342636504 0.011717874
0.381213492 0.343204327 0.011797053
0.412325326 0.343769476 0.011882381
0.443476218 0.344330770 0.011975098
0.474645750 0.344887027 0.012076442
0.505813525 0.345437074 0.012187637
0.536959182 0.345979747 0.012309890
0.568062411 0.346513904 0.012444385
0.599102967 0.347038419 0.012592270
0.630060685 0.347552197 0.012754657
0.660915491 0.348054171 0.012932607
0.691647421 0.348543312 0.013127131
0.722236628 0.349018629 0.013339178
0.752663403 0.349479178 0.013569632
0.782908181 0.349924062 0.013819302
0.812951556 0.350352437 0.014088916
0.842774292 0.350763517 0.014379121
0.872357337 0.351156575 0.014690470
0.901681830 0.351530951 0.015023421
0.930735247 0.351888094 0.015375261
0.959537055 0.352240119 0.015727286
0.988076099 0.352588932 0.016076099
0.021503372 0.368531408 0.011201951
0.050602220 0.369066822 0.011270862
0.079974707 0.369609073 0.011337547
0.109600995 0.370157173 0.011402952
0.139461131 0.370710097 0.011468081
0.169535058 0.371266783 0.011533989
0.199802622 0.371826138 0.011601780
0.230243589 0.372387044 0.011672599
0.260837654 0.372948357 0.011747624
0.291564457 0.373508915 0.011828065
0.322403590 0.374067541 0.011915149
0.353334619 0.374623048 0.012010124
0.384337091 0.375174245 0.012114241
0.415390552 0.375719937 0.012228756
0.446474558 0.376258935 0.012354916
0.477568694 0.376790060 0.012493958
0.508652584 0.377312145 0.012647095
0.539705909 0.377824041 0.012815515
0.570708418 0.378324624 0.013000370
0.601639945 0.378812797 0.013202769
0.632480424 0.379287495 0.013423775
0.663209899 0.379747692 0.013664391
0.693808542 0.380192404 0.013925558
0.724256664 0.380620693 0.014208149
0.754534728 0.381031671 0.014512958
0.784623364 0.381424508 0.014840698
0.814503376 0.381798429 0.015191994
0.844181076 0.382161163 0.015554718
0.873666069 0.382521538 0.015915092
0.902940851 0.382879343 0.016272898
0.931987905 0.383234365 0.016627920
0.960789713 0.383586390 0.016979945
0.989328758 0.383935203 0.017328758
0.024795240 0.400628550 0.011439326
0.053904873 0.401167559 0.011502845
0.083280795 0.401710955 0.011567813
0.112902970 0.402257685 0.011635274
0.142751263 0.402806660 0.011706325
0.172805448 0.403356765 0.011782104
0.203045224 0.403906859 0.011863789
0.233450225 0.404455776 0.011952590
0.264000034 0.405002337 0.012049744
0.294674194 0.405545347 0.012156505
0.325452222 0.406083605 0.012274143
0.356313625 0.406615903 0.012403930
0.387237912 0.407141038 0.012547140
0.418204607 0.407657808 0.012705037
0.449193268 0.408165025 0.012878871
0.480183496 0.408661514 0.013069866
0.511154955 0.409146122 0.013279219
0.542087380 0.409617718 0.013508088
0.572960599 0.410075204 0.013757588
0.603754541 0.410517515 0.014028781
0.634449254 0.410943624 0.014322669
0.665024917 0.411352551 0.014640191
0.695461856 0.411743362 0.014982211
0.725744885 0.412116619 0.015347348
0.755895546 0.412485130 0.015715858
0.785906066 0.412851928 0.016082656
0.815758929 0.413216799 0.016447527
0.845436615 0.413579529 0.016810257
0.874921609 0.413939904 0.017170632
0.904196391 0.414297709 0.017528438
0.933243445 0.414652732 0.017883460
0.962045253 0.415004756 0.018235484
0.990584297 0.415353569 0.018584297
0.028097181 0.432782401 0.011674906
0.057191107 0.433316175 0.011746279
0.086543718 0.433851800 0.011822902
0.116134794 0.434388163 0.011905913
0.145944031 0.434924120 0.011996491
0.175951054 0.435458505 0.012095851
0.206135429 0.435990131 0.012205237
0.236476675 0.436517797 0.012325916
0.266954277 0.437040288 0.012459173
0.297547698 0.437556386 0.012606304
0.328236397 0.438064867 0.012768606
0.358999838 0.438564512 0.012947374
0.389817507 0.439054107 0.013143893
0.420668925 0.439532451 0.013359429
0.451533665 0.439998361 0.013595223
0.482391363 0.440450674 0.013852483
0.513221736 0.440888253 0.014132379
0.544004593 0.441309993 0.014436033
0.574719855 0.441714827 0.014764511
0.605347563 0.442101726 0.015118821
0.635884934 0.442475388 0.015491380
0.666350912 0.442847753 0.015863744
0.696729301 0.443219047 0.016235039
0.727002585 0.443589057 0.016605048
0.757153246 0.443957568 0.016973559
0.787163767 0.444324366 0.017340357
0.817016629 0.444689236 0.017705228
0.846694316 0.445051966 0.018067958
0.876179309 0.445412341 0.018428332
0.905454091 0.445770147 0.018786138
0.934501145 0.446125169 0.019141160
0.963302953 0.446477194 0.019493185
0.991841998 0.446826007 0.019841998
0.031311514 0.464942617 0.011956451
0.060363140 0.465462290 0.012048974
0.089665593 0.465981196 0.012150676
0.119198484 0.466498164 0.012262779
0.148941360 0.467012001 0.012386538
0.178873710 0.467521495 0.012523235
0.208974983 0.468025420 0.012674171
0.239224601 0.468522543 0.012840664
0.269601965 0.469011622 0.013024040
0.300086479 0.469491417 0.013225625
0.330657555 0.469960691 0.013446738
0.361294633 0.470418214 0.013688688
0.391977191 0.470862773 0.013952763
0.422684764 0.471293169 0.014240221
0.453396956 0.471708229 0.014552289
0.484093454 0.472106809 0.014890149
0.514754639 0.472487991 0.015254639
0.545395792 0.472862497 0.015629145
0.576019427 0.473236789 0.016003436
0.606608028 0.473610652 0.016377300
0.637144075 0.473983873 0.016750521
0.667610053 0.474356238 0.017122885
0.697988442 0.474727532 0.017494179
0.728261726 0.475097542 0.017864189
0.758412387 0.475466052 0.018232700
0.788422908 0.475832850 0.018599498
0.818275770 0.476197721 0.018964369
0.847953457 0.476560451 0.019327099
0.877438450 0.476920826 0.019687473
0.906713232 0.477278632 0.020045279
0.935760286 0.477633654 0.020400301
0.964562094 0.477985678 0.020752326
0.993101139 0.478334491 0.021101139
0.034340112 0.497058704 0.012331944
0.063322799 0.497555398 0.012458936
0.092548205 0.498048622 0.012599161
0.121995791 0.498537155 0.012753918
0.151644967 0.499019758 0.012924527
0.181475104 0.499495181 0.013112329
0.211465553 0.499962165 0.013318678
0.241595650 0.500419447 0.013544932
0.271844734 0.500865766 0.013792448
0.302192160 0.501299866 0.014062576
0.332617315 0.501720499 0.014356650
0.363099627 0.502126434 0.014675983
0.393618586 0.502516459 0.015021857
0.424161111 0.502891839 0.015391839
0.454749711 0.503265703 0.015765703
0.485373347 0.503639994 0.016139994
0.516014500 0.504014500 0.016514500
0.546655653 0.504389006 0.016889006
0.577279289 0.504763297 0.017263297
0.607867889 0.505137161 0.017637161
0.638403937 0.505510382 0.018010382
0.668869914 0.505882747 0.018382747
0.699248303 0.506254041 0.018754041
0.729521587 0.506624050 0.019124050
0.759672248 0.506992561 0.019492561
0.789682769 0.507359359 0.019859359
0.819535631 0.507724230 0.020224230
0.849213318 0.508086960 0.020586960
0.878698311 0.508447335 0.020947335
0.907973094 0.508805140 0.021305140
0.937020148 0.509160162 0.021660162
0.965821956 0.509512187 0.022012187
0.994361000 0.509861000 0.022361000
0.037084947 0.529080204 0.012849318
0.065972073 0.529545044 0.013024091
0.095093566 0.530003630 0.013216273
0.124428750 0.530454696 0.013427230
0.153956917 0.530896963 0.013658343
0.183657338 0.531329147 0.013911004
0.213509277 0.531749961 0.014186608
0.243492006 0.532158121 0.014486545
0.273584815 0.532552348 0.014812199
0.303767029 0.532931377 0.015164934
0.334040558 0.533301468 0.015534821
0.364418947 0.533672762 0.015906115
0.394884925 0.534045127 0.016278479
0.425420972 0.534418348 0.016651700
0.456009573 0.534792211 0.017025564
0.486633208 0.535166503 0.017399855
0.517274361 0.535541009 0.017774361
0.547915514 0.535915514 0.018148867
0.578539150 0.536289806 0.018523159
0.609127750 0.536663669 0.018897022
0.639663798 0.537036890 0.019270243
0.670129775 0.537409255 0.019642608
0.700508165 0.537780549 0.020013902
0.730781449 0.538150559 0.020383911
0.760932110 0.538519069 0.020752422
0.790942630 0.538885867 0.021119220
0.820795492 0.539250738 0.021484091
0.850473179 0.539613468 0.021846821
0.879958172 0.539973843 0.022207196
0.909232955 0.540331649 0.022565001
0.938280009 0.540686671 0.022920023
0.967081817 0.541038695 0.023272048
0.995620861 0.541387509 0.023620861
0.039448638 0.560956872 0.013556184
0.068213659 0.561381010 0.013792009
0.097204453 0.561796031 0.014049541
0.126400227 0.562200626 0.014330203
0.155780170 0.562593485 0.014635428
0.185323468 0.562973295 0.014966651
0.215012371 0.563339764 0.015323772
0.244865233 0.563704634 0.015688643
0.274875754 0.564071432 0.016055441
0.305026415 0.564439943 0.016423952
0.335299699 0.564809953 0.016793961
0.365678088 0.565181247 0.017165256
0.396144066 0.565553612 0.017537620
0.426680113 0.565926833 0.017910841
0.457268714 0.566300696 0.018284705
0.487892349 0.566674988 0.018658996
0.518533502 0.567049493 0.019033502
0.549174655 0.567423999 0.019408008
0.579798291 0.567798291 0.019782299
0.610386891 0.568172154 0.020156163
0.640922939 0.568545375 0.020529384
0.671388916 0.568917740 0.020901749
0.701767305 0.569289034 0.021273043
0.732040590 0.569659044 0.021643052
0.762191251 0.570027554 0.022011563
0.792201771 0.570394352 0.022378361
0.822054633 0.570759223 0.022743232
0.851732320 0.571121953 0.023105962
0.881217313 0.571482328 0.023466337
0.910492096 0.571840133 0.023824142
0.939539150 0.572195156 0.024179164
0.968340958 0.572547180 0.024531189
0.996880002 0.572895993 0.024880002
0.041335004 0.592638864 0.014499552
0.069951512 0.593013499 0.014809633
0.098784968 0.593376073 0.015145834
0.127832609 0.593731291 0.015500562
0.157107391 0.594089096 0.015858368
0.186592385 0.594449471 0.016218743
0.216270071 0.594812201 0.016581473
0.246122934 0.595177072 0.016946344
0.276133454 0.595543870 0.017313142
0.306284115 0.595912381 0.017681652
0.336557399 0.596282390 0.018051662
0.366935789 0.596653684 0.018422956
0.397401766 0.597026049 0.018795321
0.427937814 0.597399270 0.019168542
0.458526414 0.597773133 0.019542405
0.489150050 0.598147425 0.019916697
0.519791203 0.598521931 0.020291203
0.550432356 0.598896436 0.020665708
0.581055991 0.599270728 0.021040000
0.611644591 0.599644591 0.021413863
0.642180639 0.600017813 0.021787084
0.672646616 0.600390177 0.022159449
0.703025006 0.600761471 0.022530743
0.733298290 0.601131481 0.022900753
0.763448951 0.601499992 0.023269264
0.793459471 0.601866790 0.023636061
0.823312334 0.602231661 0.024000932
0.852990020 0.602594391 0.024363662
0.882475014 0.602954765 0.024724037
0.911749796 0.603312571 0.025081843
0.940774648 0.603660192 0.025447966
0.969507149 0.603989115 0.025834644
0.997933072 0.604300221 0.026240018
0.042700242 0.624093797 0.015700242
0.071239287 0.624442610 0.016049055
0.100041095 0.624794635 0.016401080
0.129088149 0.625149657 0.016756102
