luts/cinepi-filmic-neutral.cube
TITLE "CinePi Filmic Neutral"
LUT_3D_SIZE 5
DOMAIN_MIN 0.0 0.0 0.0
DOMAIN_MAX 1.0 1.0 1.0
0.000000000 0.001500000 0.013000000
0.196479356 0.004948106 0.016448106
0.463477655 0.009471395 0.020962927
0.730983558 0.013885912 0.024535052
0.935296794 0.017155330 0.026434526
0.004956089 0.213054520 0.023937692
0.209185319 0.216341939 0.025993176
0.477560416 0.220570200 0.027951084
0.746121974 0.224758505 0.029562709
0.950743711 0.227961816 0.030889251
0.024790196 0.489754958 0.030589636
0.229275136 0.492987582 0.032170230
0.497131745 0.497326948 0.035091045
0.764681523 0.501901725 0.039005846
0.969288827 0.505591534 0.041567708
0.043275804 0.767273840 0.041069636
0.248326385 0.771058637 0.043283209
0.517942106 0.776145012 0.045747006
0.787795834 0.781282388 0.048023798
0.993347431 0.785174546 0.049843715
0.061364300 0.980295207 0.047570907
0.266963808 0.984197632 0.049353180
0.536321803 0.989228779 0.052019477
0.804807778 0.994073065 0.055370931
1.000000000 0.997585000 0.058585000
0.000000000 0.002670994 0.214202244
0.197650350 0.006119100 0.217650350
0.464704217 0.010630482 0.222061972
0.732402636 0.015003745 0.225276568
0.936812516 0.018252453 0.226996559
0.006342917 0.214179264 0.224739101
0.210680062 0.217443558 0.226594170
0.479131056 0.221655555 0.228411129
0.747693934 0.225843577 0.230020300
0.952266604 0.229057402 0.231437968
0.026326996 0.490847565 0.231112525
0.230728657 0.494098034 0.232847781
0.498410288 0.498474895 0.236093554
0.766163003 0.503139252 0.239964136
0.970975553 0.506873042 0.242364733
0.044924798 0.768547263 0.241896308
0.250129217 0.772365025 0.243989008
0.519848066 0.777473499 0.246371776
0.789692865 0.782608961 0.248655584
0.995162413 0.786483537 0.250539968
0.063272010 0.981624069 0.248194303
0.268806405 0.985512540 0.250027735
0.537980233 0.990504224 0.252838734
0.806169984 0.995285033 0.256422937
1.000000000 0.998755994 0.259787244
0.000000000 0.004207500 0.478207500
0.199186856 0.007655606 0.481655606
0.466399282 0.012133011 0.485772762
0.734321030 0.016458418 0.488572605
0.938835407 0.019684734 0.490098529
0.008224800 0.215641761 0.488102943
0.212681232 0.218880494 0.489736479
0.481202533 0.223077425 0.491422867
0.749737867 0.227271350 0.493083194
0.954223839 0.230503752 0.494661870
0.028307169 0.492289000 0.494293829
0.232577242 0.495567666 0.496273461
0.500084147 0.500018032 0.499933884
0.768222531 0.504787834 0.503558447
0.973270862 0.508572149 0.505773787
0.047177644 0.770237270 0.505338726
0.252550391 0.774091103 0.507299168
0.522360564 0.779219146 0.509610182
0.792149651 0.784342670 0.511937763
0.997478011 0.788186992 0.513933081
0.065751533 0.983362650 0.511458617
0.271166963 0.987225629 0.513385523
0.540055144 0.992156102 0.516420958
0.807812213 0.996844194 0.520345125
1.000000000 1.000000000 0.523792500
0.000000000 0.005744006 0.742212756
0.200724220 0.009191929 0.745659270
0.468181163 0.013616937 0.749322322
0.736293009 0.017901609 0.751769126
0.940886558 0.021110959 0.753148017
0.010166858 0.217091363 0.751355031
0.214717252 0.220309961 0.752814068
0.483275629 0.224498948 0.754431600
0.751750187 0.228705896 0.756204796
0.956124136 0.231962303 0.757991515
0.030235725 0.493741495 0.757570992
0.234348886 0.497053786 0.759842033
0.501870299 0.501608033 0.763742991
0.770397673 0.506461191 0.767061917
0.975643731 0.510287876 0.769121901
0.049516047 0.771945611 0.768713921
0.255019068 0.775827360 0.770572005
0.524870631 0.780964272 0.772850498
0.794554071 0.786065158 0.775261087
0.999703188 0.789871070 0.777397239
0.068188592 0.985092132 0.774756296
0.273447001 0.988921464 0.776806575
0.541999602 0.993780027 0.780105681
0.809349650 0.998380900 0.784349650
1.000000000 1.000000000 0.787797756
0.000000000 0.006915000 0.943415000
0.201936398 0.010354097 0.946785029
0.469590478 0.014736862 0.950081970
0.737824887 0.018995270 0.952301157
0.942461768 0.022195335 0.953599573
0.011680358 0.218188962 0.951921191
0.216285355 0.221395860 0.953278823
0.484849675 0.225583573 0.954885318
0.753255601 0.229805228 0.956785973
0.957527171 0.233083574 0.958762825
0.031663871 0.494857385 0.958295668
0.235640440 0.498198945 0.960820378
0.503332228 0.502841370 0.964716643
0.772122529 0.507750869 0.967828984
0.977493725 0.511604370 0.969790645
0.051345143 0.773257627 0.969399084
0.256921895 0.777155175 0.971199237
0.526771472 0.782291662 0.973479290
0.796340870 0.787368110 0.975979484
1.000000000 0.791139274 0.978243045
0.070006914 0.986401839 0.975449924
0.275120102 0.990200052 0.977614306
0.543383423 0.994996626 0.981140704
0.810520644 0.999551894 0.985551894
1.000000000 1.000000000 0.989000000
