luts/cinepi-natural.cube
TITLE "CinePi Natural"
LUT_3D_SIZE 5
DOMAIN_MIN 0.0 0.0 0.0
DOMAIN_MAX 1.0 1.0 1.0
0.000000000 0.000000000 0.000000000
0.240513028 0.000000000 0.000000000
0.513779500 0.000000000 0.000000000
0.787045972 0.000000000 0.000000000
1.000000000 0.000000000 0.000000000
0.000000000 0.236395635 0.000000000
0.234653976 0.234653976 0.000000000
0.507920447 0.232675135 0.000000000
0.781186919 0.230696294 0.000000000
1.000000000 0.228954635 0.000000000
0.000000000 0.504984000 0.000000000
0.227997028 0.503242341 0.000000000
0.501263500 0.501263500 0.000000000
0.774529972 0.499284659 0.000000000
1.000000000 0.497543000 0.000000000
0.000000000 0.773572365 0.000000000
0.221340081 0.771830706 0.000000000
0.494606553 0.769851865 0.000000000
0.767873024 0.767873024 0.000000000
1.000000000 0.766131365 0.000000000
0.000000000 1.000000000 0.000000000
0.215481028 1.000000000 0.000000000
0.488747500 1.000000000 0.000000000
0.762013972 1.000000000 0.000000000
1.000000000 1.000000000 0.000000000
0.000000000 0.000000000 0.241663212
0.239921552 0.000000000 0.239921552
0.513188024 0.000000000 0.237942712
0.786454496 0.000000000 0.235963871
1.000000000 0.000000000 0.234222212
0.000000000 0.235804159 0.235804159
0.234062500 0.234062500 0.234062500
0.507328972 0.232083659 0.232083659
0.780595443 0.230104818 0.230104818
1.000000000 0.228363159 0.228363159
0.000000000 0.504392524 0.229147212
0.227405553 0.502650865 0.227405553
0.500672024 0.500672024 0.225426712
0.773938496 0.498693183 0.223447871
1.000000000 0.496951524 0.221706212
0.000000000 0.772980889 0.222490264
0.220748605 0.771239230 0.220748605
0.494015077 0.769260389 0.218769764
0.767281548 0.767281548 0.216790923
1.000000000 0.765539889 0.215049264
0.000000000 1.000000000 0.216631212
0.214889553 1.000000000 0.214889553
0.488156024 1.000000000 0.212910712
0.761422496 1.000000000 0.210931871
1.000000000 1.000000000 0.209190212
0.000000000 0.000000000 0.516236500
0.239249528 0.000000000 0.514494841
0.512516000 0.000000000 0.512516000
0.785782472 0.000000000 0.510537159
1.000000000 0.000000000 0.508795500
0.000000000 0.235132135 0.510377447
0.233390476 0.233390476 0.508635788
0.506656948 0.231411635 0.506656948
0.779923419 0.229432794 0.504678107
1.000000000 0.227691135 0.502936447
0.000000000 0.503720500 0.503720500
0.226733528 0.501978841 0.501978841
0.500000000 0.500000000 0.500000000
0.773266472 0.498021159 0.498021159
1.000000000 0.496279500 0.496279500
0.000000000 0.772308865 0.497063553
0.220076581 0.770567206 0.495321893
0.493343052 0.768588365 0.493343052
0.766609524 0.766609524 0.491364212
1.000000000 0.764867865 0.489622553
0.000000000 1.000000000 0.491204500
0.214217528 1.000000000 0.489462841
0.487484000 1.000000000 0.487484000
0.760750472 1.000000000 0.485505159
1.000000000 1.000000000 0.483763500
0.000000000 0.000000000 0.790809788
0.238577504 0.000000000 0.789068129
0.511843976 0.000000000 0.787089288
0.785110448 0.000000000 0.785110448
1.000000000 0.000000000 0.783368788
0.000000000 0.234460111 0.784950736
0.232718452 0.232718452 0.783209077
0.505984923 0.230739611 0.781230236
0.779251395 0.228760770 0.779251395
1.000000000 0.227019111 0.777509736
0.000000000 0.503048476 0.778293788
0.226061504 0.501306817 0.776552129
0.499327976 0.499327976 0.774573288
0.772594448 0.497349135 0.772594448
1.000000000 0.495607476 0.770852788
0.000000000 0.771636841 0.771636841
0.219404557 0.769895182 0.769895182
0.492671028 0.767916341 0.767916341
0.765937500 0.765937500 0.765937500
1.000000000 0.764195841 0.764195841
0.000000000 1.000000000 0.765777788
0.213545504 1.000000000 0.764036129
0.486811976 1.000000000 0.762057288
0.760078448 1.000000000 0.760078448
1.000000000 1.000000000 0.758336788
0.000000000 0.000000000 1.000000000
0.237986028 0.000000000 1.000000000
0.511252500 0.000000000 1.000000000
0.784518972 0.000000000 1.000000000
1.000000000 0.000000000 1.000000000
0.000000000 0.233868635 1.000000000
0.232126976 0.232126976 1.000000000
0.505393447 0.230148135 1.000000000
0.778659919 0.228169294 1.000000000
1.000000000 0.226427635 1.000000000
0.000000000 0.502457000 1.000000000
0.225470028 0.500715341 1.000000000
0.498736500 0.498736500 1.000000000
0.772002972 0.496757659 1.000000000
1.000000000 0.495016000 1.000000000
0.000000000 0.771045365 1.000000000
0.218813081 0.769303706 1.000000000
0.492079553 0.767324865 1.000000000
0.765346024 0.765346024 1.000000000
1.000000000 0.763604365 1.000000000
0.000000000 1.000000000 1.000000000
0.212954028 1.000000000 1.000000000
0.486220500 1.000000000 1.000000000
0.759486972 1.000000000 1.000000000
1.000000000 1.000000000 1.000000000
