luts/cinepi-filmic-neutral.cube
TITLE "CinePi Filmic Neutral"
LUT_3D_SIZE 33
DOMAIN_MIN 0.0 0.0 0.0
DOMAIN_MAX 1.0 1.0 1.0
0.000000000 0.001500000 0.013000000
0.012790628 0.001835367 0.013335367
0.034442011 0.002202265 0.013702265
0.057830100 0.002598593 0.014098593
0.082830843 0.003022249 0.014522249
0.109320191 0.003471131 0.014971131
0.137174092 0.003943135 0.015443135
0.166268498 0.004436161 0.015936161
0.196479356 0.004948106 0.016448106
0.227682618 0.005476868 0.016976868
0.259754232 0.006020345 0.017520345
0.292570148 0.006576435 0.018076435
0.326006316 0.007143035 0.018643035
0.359938686 0.007718044 0.019218044
0.394243207 0.008299359 0.019799359
0.428795828 0.008884878 0.020384878
0.463477655 0.009471395 0.020962927
0.498174777 0.010054635 0.021512568
0.532762672 0.010632595 0.022032580
0.567116305 0.011203387 0.022522687
0.601110467 0.011765154 0.022982938
0.634619801 0.012316076 0.023413660
0.667518824 0.012854357 0.023815407
0.699681960 0.013378222 0.024188915
0.730983558 0.013885912 0.024535052
0.761297921 0.014375678 0.024854776
0.790499325 0.014845775 0.025149089
0.818462045 0.015294462 0.025419004
0.845060366 0.015719992 0.025665505
0.870168609 0.016120612 0.025889519
0.893661137 0.016494560 0.026091889
0.915412369 0.016840063 0.026273353
0.935296794 0.017155330 0.026434526
0.000000000 0.022083456 0.014128195
0.013918823 0.022418823 0.014463561
0.035570206 0.022785721 0.014830460
0.058958295 0.023182049 0.015226788
0.083959038 0.023605705 0.015650444
0.110448385 0.024054587 0.016099325
0.138302287 0.024526591 0.016571330
0.167396692 0.025019617 0.017064356
0.197607551 0.025531562 0.017576301
0.228810813 0.026060324 0.018105063
0.260882427 0.026603801 0.018648540
0.293698343 0.027159891 0.019204630
0.327134511 0.027726491 0.019771230
0.361066881 0.028301500 0.020346239
0.395375626 0.028881910 0.020919708
0.429947431 0.029463318 0.021469601
0.464658353 0.030043601 0.021993615
0.499383670 0.030620798 0.022490896
0.533998452 0.031192998 0.022960974
0.568377589 0.031758323 0.023403716
0.602395812 0.032314935 0.023819284
0.635927718 0.032861020 0.024208084
0.668847801 0.033394788 0.024570722
0.701030470 0.033914468 0.024907955
0.732350076 0.034418299 0.025220647
0.762680940 0.034904529 0.025509725
0.791897366 0.035371407 0.025776142
0.819873667 0.035817183 0.026020833
0.846484180 0.036240101 0.026244694
0.871603280 0.036638395 0.026448545
0.895105394 0.037010289 0.026633111
0.916865009 0.037353995 0.026799007
0.936756683 0.037667709 0.026946717
0.000000000 0.044602211 0.015362465
0.015153093 0.044937578 0.015697831
0.036804476 0.045304476 0.016064730
0.060192565 0.045700804 0.016461058
0.085193308 0.046124460 0.016884714
0.111682655 0.046573341 0.017333595
0.139536557 0.047045346 0.017805600
0.168630962 0.047538372 0.018298626
0.198841821 0.048050317 0.018810571
0.230045083 0.048579079 0.019339333
0.262116697 0.049122556 0.019882810
0.294932613 0.049678646 0.020438900
0.328374677 0.050243983 0.020994551
0.362327738 0.050814558 0.021531132
0.396667731 0.051388272 0.022046571
0.431270254 0.051963098 0.022539416
0.466010681 0.052537057 0.023008635
0.500764177 0.053108217 0.023453583
0.535405719 0.053674682 0.023873965
0.569810121 0.054234594 0.024269786
0.603852058 0.054786124 0.024641313
0.637406090 0.055327467 0.024989022
0.670346690 0.055856839 0.025313557
0.702548262 0.056372468 0.025615683
0.733885172 0.056872591 0.025896240
0.764231766 0.057355450 0.026156105
0.793462390 0.057819286 0.026396154
0.821451409 0.058262337 0.026617227
0.848073222 0.058682833 0.026820100
0.873202279 0.059078993 0.027005461
0.896713083 0.059449025 0.027173889
0.918480206 0.059791122 0.027325842
0.938378289 0.060103463 0.027461648
0.000000000 0.068927245 0.016695738
0.016486366 0.069262611 0.017031105
0.038137750 0.069629510 0.017398004
0.061525838 0.070025838 0.017794332
0.086526581 0.070449494 0.018217988
0.113015929 0.070898375 0.018666869
0.140869831 0.071370380 0.019138874
0.169964236 0.071863406 0.019631900
0.200175095 0.072375351 0.020143845
0.231379049 0.072903965 0.020671321
0.263461745 0.073445067 0.021194217
0.296302582 0.073995816 0.021704024
0.329777723 0.074554065 0.022198247
0.363763080 0.075117720 0.022674850
0.398134328 0.075684736 0.023132244
0.432766916 0.076253120 0.023569254
0.467536086 0.076820920 0.023985094
0.502316892 0.077386227 0.024379323
0.536984222 0.077947166 0.024751812
0.571412820 0.078501893 0.025102698
0.605477311 0.079048590 0.025432337
0.639052227 0.079585459 0.025741263
0.672012028 0.080110716 0.026030139
0.704231127 0.080622589 0.026299716
0.735583913 0.081119310 0.026550789
0.765944773 0.081599112 0.026784161
0.795188107 0.082060225 0.027000603
0.823188351 0.082500871 0.027200831
0.849819982 0.082919263 0.027385472
0.874957537 0.083313602 0.027555049
0.898475617 0.083682075 0.027709963
0.920248896 0.084022853 0.027850484
0.940152117 0.084334092 0.027976749
0.000000000 0.094929537 0.018120944
0.017911572 0.095264904 0.018456310
0.039562955 0.095631803 0.018823209
0.062951043 0.096028131 0.019219537
0.087951787 0.096451787 0.019643193
0.114441134 0.096900668 0.020092074
0.142295132 0.097372652 0.020563901
0.171396594 0.097864166 0.021043822
0.201626333 0.098372065 0.021520702
0.232861016 0.098894094 0.021991110
0.264977071 0.099428048 0.022452055
0.297850686 0.099971774 0.022900991
0.331357813 0.100523169 0.023335810
0.365374175 0.101080179 0.023754831
0.399775279 0.101640798 0.024156779
0.434436423 0.102203062 0.024540756
0.469232724 0.102765049 0.024906209
0.504039130 0.103324870 0.025252895
0.538730446 0.103880669 0.025580840
0.573181353 0.104430616 0.025890294
0.607266438 0.104972900 0.026181688
0.640860212 0.105505728 0.026455592
0.673837137 0.106027315 0.026712666
0.706071647 0.106535886 0.026953622
0.737438170 0.107029664 0.027179184
0.767811149 0.107506869 0.027390049
0.797065056 0.107965716 0.027586857
0.825074411 0.108404409 0.027770163
0.851713791 0.108821140 0.027940413
0.876857840 0.109214088 0.028097929
0.900381276 0.109581413 0.028242899
0.922158890 0.109921262 0.028375367
0.942065553 0.110231764 0.028495240
0.000000000 0.122480069 0.019631009
0.019421637 0.122815436 0.019966376
0.041073021 0.123182334 0.020333274
0.064462333 0.123578400 0.020727330
0.089471665 0.124000216 0.021135035
0.115978849 0.124445275 0.021550792
0.143860897 0.124911248 0.021970524
0.172994634 0.125395846 0.022390505
0.203256679 0.125896823 0.022807390
0.234523436 0.126411979 0.023218232
0.266671088 0.126939162 0.023620496
0.299575597 0.127476267 0.024012056
0.333112709 0.128021237 0.024391190
0.367157958 0.128572057 0.024756564
0.401586687 0.129126756 0.025107209
0.436274051 0.129683402 0.025442491
0.471095047 0.130240097 0.025762082
0.505924526 0.130794974 0.026065920
0.540637217 0.131346193 0.026354165
0.575107755 0.131891933 0.026627164
0.609210695 0.132430391 0.026885399
0.642820543 0.132959774 0.027129450
0.675811778 0.133478295 0.027359949
0.708058869 0.133984170 0.027577540
0.739436301 0.134475610 0.027782842
0.769818590 0.134950820 0.027976416
0.799080300 0.135407995 0.028158733
0.827096055 0.135845317 0.028330153
0.853740551 0.136260952 0.028490903
0.878888560 0.136653051 0.028641066
0.902414936 0.137019746 0.028780574
0.924194615 0.137359153 0.028909208
0.944102612 0.137669369 0.029026604
0.001230728 0.151447278 0.021196828
0.021034816 0.151779760 0.021507197
0.042706510 0.152142306 0.021836376
0.066122924 0.152532565 0.022180101
0.091161063 0.152948207 0.022534306
0.117697803 0.153386933 0.022895175
0.145609855 0.153846477 0.023259185
0.174773757 0.154324611 0.023623145
0.205065854 0.154819148 0.023984219
0.236362291 0.155327944 0.024339942
0.268539009 0.155848898 0.024688225
0.301471749 0.156379954 0.025027356
0.335036054 0.156919097 0.025355989
0.369107279 0.157464351 0.025673123
0.403560607 0.158013779 0.025978082
0.438271062 0.158565477 0.026270482
0.473113528 0.159117571 0.026550200
0.507962772 0.159668213 0.026817331
0.542693461 0.160215575 0.027072153
0.577180191 0.160757845 0.027315079
0.611297506 0.161293222 0.027546618
0.644919922 0.161819913 0.027767330
0.677921948 0.162336122 0.027977787
0.710178110 0.162840052 0.028178532
0.741562967 0.163329901 0.028370045
0.771951129 0.163803853 0.028552712
0.801217271 0.164260078 0.028726799
0.829236144 0.164696732 0.028892429
0.855882584 0.165111950 0.029049568
0.881031514 0.165503852 0.029198018
0.904557950 0.165870534 0.029337416
0.926336993 0.166210077 0.029467232
0.946243827 0.166520542 0.029586788
0.003002351 0.181683003 0.022645446
0.022829427 0.182010559 0.022913123
0.044525606 0.182367858 0.023196830
0.067967687 0.182752617 0.023492885
0.093032369 0.183162571 0.023797798
0.119596220 0.183595488 0.024108316
0.147535659 0.184049163 0.024421465
0.176726941 0.184521430 0.024734578
0.207046140 0.185010159 0.025045319
0.238369150 0.185513261 0.025351692
0.270571677 0.186028685 0.025652044
0.303529248 0.186554420 0.025945062
0.337117211 0.187088493 0.026229757
0.371210752 0.187628965 0.026505447
0.405684907 0.188173930 0.026771728
0.440414576 0.188721510 0.027028444
0.475274547 0.189269853 0.027275652
0.510139514 0.189817126 0.027513583
0.544884098 0.190361511 0.027742600
0.579382873 0.190901200 0.027963157
0.613510387 0.191434392 0.028175756
0.647141184 0.191959286 0.028380903
0.680149825 0.192474078 0.028579076
0.712410910 0.192976954 0.028770678
0.743799094 0.193466089 0.028956013
0.774189102 0.193939645 0.029135251
0.803455744 0.194395763 0.029308409
0.831473920 0.194832566 0.029475332
0.858118631 0.195248156 0.029635682
0.883264976 0.195640611 0.029788935
0.906788155 0.196007991 0.029934381
0.928563460 0.196348335 0.030071139
0.948466269 0.196659663 0.030198169
0.004956089 0.213054520 0.023937692
0.024803997 0.213377612 0.024166680
0.046522278 0.213730176 0.024409342
0.069987423 0.214109992 0.024662565
0.095075828 0.214514863 0.024923420
0.121663765 0.214942618 0.025189206
0.149627368 0.215391115 0.025457481
0.178842614 0.215858247 0.025726088
0.209185319 0.216341939 0.025993176
0.240531132 0.216840155 0.026257199
0.272755537 0.217350891 0.026516922
0.305733854 0.217872180 0.026771410
0.339341252 0.218402088 0.027020013
0.373452757 0.218938711 0.027262340
0.407943273 0.219480170 0.027498237
0.442687591 0.220024611 0.027727748
0.477560416 0.220570200 0.027951084
0.512436388 0.221115115 0.028168578
0.547190097 0.221657544 0.028380649
0.581696114 0.222195681 0.028587756
0.615829010 0.222727720 0.028790359
0.649463377 0.223251849 0.028988875
0.682473850 0.223766248 0.029183645
0.714735125 0.224269083 0.029374896
0.746121974 0.224758505 0.029562709
0.776509263 0.225232644 0.029746998
0.805771958 0.225689607 0.029927485
0.833785136 0.226127481 0.030103691
0.860423986 0.226544327 0.030274925
0.885563809 0.226938180 0.030440290
0.909080016 0.227307054 0.030598683
0.930848118 0.227648941 0.030748820
0.950743711 0.227961816 0.030889251
0.007079418 0.245433979 0.025076623
0.026945595 0.245753157 0.025271684
0.048683148 0.246101590 0.025478552
0.072168275 0.246477125 0.025694666
0.097277079 0.246877625 0.025917638
0.123885546 0.247300980 0.026145298
0.151869532 0.247745110 0.026375716
0.181104754 0.248207961 0.026607227
0.211466777 0.248687513 0.026838437
0.242831021 0.249181779 0.027068232
0.275072756 0.249688802 0.027295769
0.308067115 0.250206654 0.027520467
0.341689097 0.250733437 0.027741984
0.375813587 0.251267277 0.027960198
0.410315369 0.251806322 0.028175171
0.445069145 0.252348737 0.028387117
0.479949555 0.252892700 0.028596368
0.514831199 0.253436399 0.028803326
0.549588661 0.253978024 0.029008428
0.584096527 0.254515765 0.029212102
0.618229412 0.255047806 0.029414725
0.651861978 0.255572321 0.029616586
0.684868956 0.256087469 0.029817847
0.717125161 0.256591391 0.030018511
0.748505510 0.257082205 0.030218397
0.778885031 0.257558009 0.030417112
0.808138875 0.258016869 0.030614039
0.836142318 0.258456829 0.030808324
0.862770765 0.258875903 0.030998876
0.887899749 0.259272079 0.031184372
0.911404915 0.259643319 0.031363269
0.933162021 0.259987563 0.031533826
0.953046913 0.260302730 0.031694132
0.009355241 0.278694508 0.026073782
0.029236755 0.279010399 0.026240361
0.050990353 0.279355394 0.026417431
0.074491953 0.279727399 0.026602953
0.099617377 0.280124337 0.026795060
0.126242339 0.280544158 0.026992084
0.154242435 0.280984835 0.027192585
0.183493130 0.281444371 0.027395359
0.213869758 0.281920794 0.027599447
0.245247521 0.282412163 0.027804135
0.277501494 0.282916563 0.028008945
0.310506635 0.283432104 0.028213617
0.344137795 0.283956921 0.028418090
0.378269732 0.284489165 0.028622474
0.412777131 0.285027006 0.028827015
0.447534621 0.285568625 0.029032064
0.482416799 0.286112210 0.029238032
0.517298246 0.286655951 0.029445356
0.552053558 0.287198036 0.029654451
0.586557361 0.287736648 0.029865671
0.620684335 0.288269956 0.030079270
0.654309238 0.288796113 0.030295363
0.687306920 0.289313253 0.030513889
0.719552339 0.289819486 0.030734584
0.750920582 0.290312895 0.030956952
0.781286867 0.290791534 0.031180249
0.810526554 0.291253428 0.031403465
0.838515149 0.291696570 0.031625325
0.865128301 0.292118922 0.031844285
0.890241796 0.292518417 0.032058544
0.913731550 0.292892960 0.032266066
0.935473591 0.293240432 0.032464600
0.955344042 0.293558693 0.032651723
0.011762235 0.312710140 0.026948569
0.031655831 0.313023442 0.027092709
0.053421898 0.313365766 0.027246623
0.076936086 0.313735072 0.027408767
0.102073955 0.314129344 0.027577760
0.128710965 0.314546584 0.027752412
0.156722463 0.314984818 0.027931737
0.185983684 0.315442097 0.028114963
0.216369744 0.315916499 0.028301533
0.247755648 0.316406124 0.028491102
0.280016293 0.316909094 0.028683522
0.313026482 0.317423554 0.028878820
0.346660933 0.317947665 0.029077181
0.380794300 0.318479603 0.029278908
0.415301189 0.319017553 0.029484397
0.450056177 0.319559708 0.029694092
0.484933837 0.320104261 0.029908449
0.519808758 0.320649401 0.030127894
0.554555568 0.321193308 0.030352778
0.589048956 0.321734152 0.030583341
0.623163693 0.322270082 0.030819666
0.656774656 0.322799226 0.031061647
0.689756839 0.323319687 0.031308956
0.721985373 0.323829538 0.031561011
0.753335537 0.324326821 0.031816953
0.783682768 0.324809544 0.032075636
0.812902664 0.325275679 0.032335608
0.840870985 0.325723165 0.032595119
0.867463654 0.326149906 0.032852118
0.892556742 0.326553774 0.033104278
0.916026458 0.326932610 0.033349011
0.937749135 0.327284232 0.033583507
0.957601201 0.327606433 0.033804774
0.014275314 0.347355716 0.027727363
0.034177465 0.347667185 0.027855616
0.055952128 0.348007666 0.027993566
0.079474704 0.348375176 0.028140132
0.104620510 0.348767747 0.028294386
0.131264767 0.349183433 0.028455578
0.159282598 0.349620310 0.028623143
0.188549023 0.350076475 0.028796704
0.218938961 0.350550046 0.028976073
0.250327238 0.351039162 0.029161234
0.282588595 0.351541979 0.029352331
0.315597699 0.352056672 0.029549644
0.349229159 0.352581424 0.029753559
0.383357545 0.353114429 0.029964539
0.417857404 0.353653886 0.030183082
0.452603286 0.354197992 0.030409689
0.487469764 0.354744941 0.030644814
0.522331454 0.355292916 0.030888829
0.557063044 0.355840085 0.031141979
0.591539310 0.356384598 0.031404338
0.625635141 0.356924579 0.031675777
0.659225555 0.357458127 0.031955920
0.692185719 0.357983306 0.032244121
0.724390962 0.358498148 0.032539430
0.755716785 0.359000647 0.032840578
0.786038869 0.359488758 0.033145962
0.815233077 0.359960398 0.033453639
0.843175457 0.360413443 0.033761327
0.869742229 0.360845733 0.034066421
0.894809779 0.361255073 0.034366007
0.918254641 0.361639236 0.034656898
0.939953480 0.361995965 0.034935666
0.959783057 0.362322985 0.035198697
0.016866215 0.382506757 0.028442451
0.036773173 0.382817196 0.028561776
0.058552319 0.383156717 0.028691401
0.082078828 0.383523384 0.028830663
0.107227792 0.383915278 0.028979051
0.133874217 0.384330500 0.029136217
0.161893020 0.384767168 0.029301976
0.191159028 0.385223422 0.029476311
0.221546986 0.385697418 0.029659358
0.252931562 0.386187326 0.029851393
0.285187361 0.386691335 0.030052812
0.318188939 0.387207640 0.030264103
0.351810815 0.387734446 0.030485816
0.385927500 0.388269959 0.030718525
0.420413508 0.388812384 0.030962793
0.455143383 0.389359920 0.031219127
0.489991721 0.389910756 0.031487940
0.524833194 0.390463063 0.031769501
0.559542572 0.391014992 0.032063901
0.593994745 0.391564667 0.032371005
0.628064743 0.392110184 0.032690419
0.661627756 0.392649603 0.033021450
0.694559149 0.393180948 0.033363084
0.726734475 0.393702201 0.033713953
0.758029484 0.394211303 0.034072326
0.788320132 0.394706150 0.034436091
0.817482575 0.395184597 0.034802761
0.845393173 0.395644452 0.035169472
0.871928477 0.396083486 0.035533007
0.896965214 0.396499428 0.035889817
0.920381266 0.396890190 0.036235275
0.942061299 0.397255075 0.036559282
0.961881777 0.397591587 0.036858067
0.019504170 0.418039321 0.029130768
0.039412018 0.418349569 0.029248439
0.061191355 0.418689049 0.029377709
0.084717150 0.419055869 0.029518297
0.109864294 0.419448153 0.029670065
0.136507600 0.419864043 0.029833025
0.164521800 0.420301699 0.030007332
0.193781553 0.420759293 0.030193284
0.224161450 0.421235015 0.030391300
0.255536027 0.421727067 0.030601905
0.287779776 0.422233658 0.030825702
0.320767164 0.422753004 0.031063346
0.354372648 0.423283322 0.031315502
0.388470700 0.423822827 0.031582816
0.422935825 0.424369727 0.031865865
0.457642588 0.424922216 0.032165121
0.492465635 0.425478472 0.032480904
0.527279716 0.426036648 0.032813337
0.561959710 0.426594874 0.033162307
0.596380646 0.427151243 0.033527422
0.630417724 0.427703814 0.033907973
0.663946330 0.428250606 0.034302902
0.696842055 0.428789594 0.034710775
0.728980705 0.429318706 0.035129758
0.760238307 0.429835824 0.035557602
0.790491115 0.430338779 0.035991640
0.819621003 0.430826513 0.036424547
0.847515711 0.431299127 0.036844154
0.874049776 0.431753806 0.037248439
0.899098498 0.432187330 0.037633363
0.922541803 0.432595490 0.037986308
0.944253723 0.432975361 0.038305641
0.964107408 0.433324240 0.038591463
0.022156654 0.453829843 0.029832510
0.042061366 0.454140763 0.029956006
0.063836483 0.454481147 0.030093114
0.087356792 0.454849142 0.030243890
0.112497007 0.455242911 0.030408526
0.139131772 0.455660632 0.030587347
0.167135659 0.456100497 0.030780808
0.196383182 0.456560712 0.030989473
0.226748803 0.457039493 0.031214001
0.258106949 0.457535066 0.031455120
0.290332025 0.458045658 0.031713597
0.323298432 0.458569500 0.031990204
0.356880590 0.459104816 0.032285681
0.390952958 0.459649825 0.032600692
0.425390058 0.460202731 0.032935788
0.460066501 0.460761717 0.033291354
0.494857005 0.461324946 0.033667572
0.529636428 0.461890549 0.034064370
0.564279783 0.462456626 0.034481384
0.598662266 0.463021235 0.034917913
0.632659269 0.463582393 0.035372887
0.666146406 0.464138072 0.035844832
0.699002270 0.464686781 0.036329682
0.731119661 0.465229971 0.036811952
0.762375640 0.465765614 0.037288255
0.792647045 0.466290279 0.037751990
0.821816159 0.466799314 0.038186316
0.849756662 0.467289876 0.038590277
0.876341597 0.467759240 0.038964054
0.901443997 0.468204680 0.039307837
0.924936924 0.468623474 0.039621792
0.946693492 0.469012912 0.039906045
0.966586903 0.469370303 0.040160654
0.024790196 0.489754958 0.030589636
0.044687691 0.490067424 0.030726535
0.066454119 0.490409671 0.030879778
0.089964113 0.490779876 0.031049711
0.115092234 0.491176237 0.031236809
0.141712979 0.491596962 0.031441666
0.169700788 0.492040272 0.031664986
0.198930054 0.492504399 0.031907557
0.229275136 0.492987582 0.032170230
0.260610375 0.493488063 0.032453891
0.292810115 0.494004085 0.032759420
0.325748717 0.494533884 0.033087664
0.359300589 0.495075691 0.033439386
0.393340203 0.495627719 0.033815226
0.427742124 0.496188163 0.034215656
0.462381030 0.496755192 0.034640932
0.497131745 0.497326948 0.035091045
0.531869254 0.497901532 0.035565683
0.566468734 0.498477011 0.036064180
0.600816980 0.499053846 0.036576517
0.634802826 0.499632841 0.037090825
0.668301066 0.500211325 0.037605111
0.701196278 0.500784407 0.038098897
0.733365306 0.501348758 0.038565834
0.764681523 0.501901725 0.039005846
0.795018168 0.502440624 0.039418958
0.824248394 0.502962755 0.039805268
0.852245299 0.503465403 0.040164913
0.878881962 0.503945852 0.040498047
0.904031476 0.504401387 0.040804811
0.927566976 0.504829304 0.041085317
0.949361662 0.505226910 0.041339620
0.969288827 0.505591534 0.041567708
0.027371219 0.525691328 0.031444298
0.047257419 0.526006214 0.031602172
0.069010699 0.526351278 0.031779835
0.092505559 0.526724727 0.031977873
0.117616434 0.527124783 0.032196998
0.144217703 0.527549681 0.032438026
0.172183696 0.527997666 0.032701862
0.201388710 0.528466990 0.032989470
0.231707028 0.528955908 0.033301848
0.263012933 0.529462675 0.033639988
0.295180729 0.529985542 0.034004841
0.328084766 0.530522748 0.034397276
0.361599464 0.531072521 0.034818036
0.395599334 0.531633065 0.035267688
0.429959007 0.532202562 0.035746577
0.464554528 0.532779432 0.036253785
0.499279511 0.533365788 0.036774402
0.534014557 0.533960870 0.037303537
0.568638397 0.534561446 0.037832589
0.603036235 0.535162758 0.038340583
0.637082634 0.535762202 0.038825997
0.670651430 0.536357222 0.039288390
0.703616248 0.536945219 0.039727485
0.735850544 0.537523557 0.040143141
0.767227641 0.538089569 0.040535318
0.797620768 0.538640572 0.040904052
0.826903100 0.539173868 0.041249422
0.854947783 0.539686754 0.041571526
0.881627975 0.540176531 0.041870459
0.906816863 0.540640503 0.042146286
0.930387696 0.541075991 0.042399030
0.952213797 0.541480329 0.042628650
0.972168589 0.541850874 0.042835031
0.029866895 0.561515451 0.032437256
0.049737786 0.561833618 0.032623563
0.071473527 0.562182440 0.032833796
0.094948515 0.562560147 0.033068740
0.120037084 0.562964983 0.033329291
0.146613518 0.563395203 0.033616440
0.174552064 0.563849069 0.033931247
0.203726953 0.564324849 0.034274805
0.234012412 0.564820808 0.034648205
0.265282693 0.565335209 0.035052504
0.297412088 0.565866304 0.035488673
0.330274960 0.566412332 0.035957559
0.363752181 0.566972885 0.036454793
0.397735722 0.567549882 0.036967155
0.432101303 0.568141656 0.037493928
0.466733101 0.568744142 0.038017237
0.501512353 0.569353745 0.038524260
0.536313818 0.569968108 0.039013830
0.571011939 0.570584805 0.039485029
0.605480873 0.571201352 0.039937161
0.639594536 0.571815209 0.040369725
0.673226635 0.572423795 0.040782380
0.706250707 0.573024489 0.041174919
0.738540161 0.573614646 0.041547236
0.769968313 0.574191599 0.041899299
0.800408418 0.574752668 0.042231121
0.829733710 0.575295170 0.042542736
0.857817426 0.575816421 0.042834173
0.884532834 0.576313743 0.043105435
0.909753258 0.576784474 0.043356485
0.933352095 0.577225962 0.043587225
0.955202833 0.577635580 0.043797488
0.975179059 0.578010717 0.043987027
0.032245997 0.597103483 0.033606297
0.052097684 0.597425765 0.033828268
0.073811632 0.597779257 0.034078976
0.097262159 0.598162206 0.034359348
0.122323522 0.598572872 0.034670423
0.148869940 0.599009524 0.035013318
0.176775601 0.599470437 0.035389197
0.205914693 0.599953887 0.035799234
0.236162530 0.600458386 0.036243698
0.267408591 0.600985460 0.036711685
0.299532837 0.601534573 0.037199702
0.332412473 0.602103657 0.037704077
0.365933852 0.602688517 0.038203726
0.399974381 0.603286703 0.038693752
0.434409549 0.603896014 0.039172416
0.469114486 0.604514172 0.039638259
0.503963988 0.605138829 0.040090085
0.538832547 0.605767569 0.040526938
0.573594381 0.606397920 0.040948076
0.608123472 0.607027357 0.041352943
0.642293599 0.607653314 0.041741143
0.675978379 0.608273188 0.042112405
0.709051302 0.608884350 0.042466561
0.741385767 0.609484153 0.042803512
0.772855119 0.610069934 0.043123203
0.803332680 0.610639030 0.043425597
0.832691778 0.611188775 0.043710650
0.860805776 0.611716515 0.043978293
0.887548094 0.612219604 0.044228412
0.912792225 0.612695415 0.044460834
0.936411755 0.613141338 0.044675316
0.958280369 0.613554785 0.044871533
0.978271859 0.613933194 0.045049080
0.034479725 0.632331061 0.034984707
0.054308491 0.632658255 0.035249246
0.075996587 0.633017287 0.035547964
0.099418278 0.633406415 0.035881888
