luts/cinepi-cinema-warm.cube
TITLE "CinePi Cinema Warm"
LUT_3D_SIZE 5
DOMAIN_MIN 0.0 0.0 0.0
DOMAIN_MAX 1.0 1.0 1.0
0.000000000 0.001500000 0.010000000
0.218677162 0.001500000 0.010000000
0.499941654 0.001498255 0.009988365
0.781604647 0.001376216 0.009054032
0.999238763 0.001801136 0.005728361
0.000000000 0.222960896 0.009294437
0.219651372 0.222774560 0.006479712
0.508108847 0.223603032 0.000000000
0.798914905 0.225055167 0.000000000
1.000000000 0.226200581 0.000000000
0.020907263 0.507811458 0.000000000
0.246384239 0.508793516 0.000000000
0.532135649 0.509297620 0.000000000
0.813620838 0.508767713 0.000000000
1.000000000 0.508298000 0.000000000
0.032000000 0.790281270 0.000000000
0.249105307 0.789811557 0.000000000
0.530365145 0.789218270 0.000000000
0.811624983 0.788624983 0.000000000
1.000000000 0.788155270 0.000000000
0.032000000 1.000000000 0.000000000
0.247525162 1.000000000 0.000000000
0.528784409 1.000000000 0.000000000
0.807512295 1.000000000 0.000000000
1.000000000 1.000000000 0.000000000
0.000000000 0.001500000 0.232987358
0.218517645 0.001500000 0.232517645
0.499824882 0.001482225 0.231805861
0.782043063 0.001429541 0.229590756
1.000000000 0.002124792 0.224760976
0.000000000 0.222794328 0.230146451
0.221027785 0.222898205 0.225745682
0.510364224 0.223950738 0.216758555
0.801338669 0.225464594 0.206390958
1.000000000 0.226548874 0.199093596
0.023266819 0.508183366 0.200726634
0.247902415 0.509027760 0.194727520
0.532201463 0.509201477 0.191348376
0.813461321 0.508608196 0.190755071
1.000000000 0.508138483 0.190285358
0.032000000 0.790121753 0.190415503
0.248945790 0.789652040 0.189945790
0.530205628 0.789058753 0.189352503
0.811465466 0.788465466 0.188759216
1.000000000 0.787995753 0.188289503
0.032000000 1.000000000 0.188835358
0.247365645 1.000000000 0.188365645
0.528403858 1.000000000 0.187959354
0.806192997 1.000000000 0.190294470
1.000000000 1.000000000 0.192900446
0.000000000 0.001500000 0.514639000
0.218316162 0.001500000 0.514169287
0.499736517 0.001439806 0.513174707
0.783223258 0.001648245 0.509647828
1.000000000 0.002639832 0.503704853
0.000000000 0.222741504 0.510477388
0.223220255 0.223166202 0.504863024
0.513411486 0.224443550 0.495115307
0.804336668 0.225975836 0.484870760
1.000000000 0.226934888 0.478265176
0.026023048 0.508610813 0.479683577
0.249375545 0.509231377 0.474799925
0.532000000 0.509000000 0.473000000
0.813259838 0.508406713 0.472406713
1.000000000 0.507937000 0.471937000
0.032000000 0.789920270 0.472067145
0.248744307 0.789450557 0.471597432
0.530004145 0.788857270 0.471004145
0.811263983 0.788263983 0.470410858
1.000000000 0.787794270 0.469941145
0.032000000 1.000000000 0.470487000
0.247164162 1.000000000 0.470017287
0.527395645 1.000000000 0.470291675
0.804377910 1.000000000 0.473307590
1.000000000 1.000000000 0.475599726
0.000000000 0.001500000 0.796290642
0.218116119 0.001499460 0.795817329
0.499718824 0.001379291 0.794388090
0.784999765 0.002013301 0.789147853
1.000000000 0.003246837 0.782324845
0.000000000 0.222843832 0.790212916
0.225804396 0.223533691 0.783622977
0.516543397 0.224965764 0.773414758
0.807112293 0.226446392 0.763593351
1.000000000 0.227225812 0.757912768
0.028375135 0.508956121 0.759061082
0.250207567 0.509298678 0.755524305
0.531798517 0.508798517 0.754651642
0.813058355 0.508205230 0.754058355
1.000000000 0.507735517 0.753588642
0.032000000 0.789718787 0.753718787
0.248542824 0.789249074 0.753249074
0.529802662 0.788655787 0.752655787
0.811062500 0.788062500 0.752062500
1.000000000 0.787584935 0.751616342
0.032000000 1.000000000 0.752138642
0.246962679 1.000000000 0.751668929
0.525952928 1.000000000 0.752990608
0.802614348 1.000000000 0.756277236
1.000000000 1.000000000 0.757929834
0.000000000 0.001500000 1.000000000
0.217988716 0.001487417 1.000000000
0.500041646 0.001407370 1.000000000
0.786688664 0.002376035 1.000000000
1.000000000 0.003758965 0.995683173
0.001129410 0.223006190 1.000000000
0.227977970 0.223862331 0.996989587
0.518935876 0.225367053 0.987217920
0.809028170 0.226761681 0.978513186
1.000000000 0.227366182 0.974171816
0.029847054 0.509147128 0.974944365
0.250367060 0.509228883 0.973010211
0.531639000 0.508639000 0.973000000
0.812898838 0.508045713 0.973000000
1.000000000 0.507576000 0.973000000
0.032000000 0.789559270 0.973000000
0.248383307 0.789089557 0.973000000
0.529643145 0.788496270 0.973000000
0.810902983 0.787902983 0.973000000
1.000000000 0.787326574 0.973320089
0.032000000 1.000000000 0.973000000
0.246658729 1.000000000 0.973121865
0.524617392 1.000000000 0.975907232
0.801365702 1.000000000 0.979713834
1.000000000 1.000000000 0.981100000
